;FLAVOR:RepRap
;TIME:2347
;Filament used: 1.71407m
;Layer height: 0.2
;Generated with Cura_SteamEngine 3.4.1
T0
M190 S60
M104 S200
M109 S200
M82 ;absolute extrusion mode
G21                ;metric values
G90                ;absolute positioning
M107              ;start with the fan off
M83  	       ; extruder relative mode
M83 ;relative extrusion mode
G1 F1800 E-6.5
;LAYER_COUNT:130
;LAYER:0
M107
M204 T5000
G0 F3600 X93.538 Y98.534 Z0.25
M204 P3000
;TYPE:SKIRT
G1 F1800 E6.5
G1 X93.853 Y98.277 E0.01963
G1 X94.212 Y98.086 E0.01964
G1 X94.601 Y97.969 E0.01962
G1 X95 Y97.93 E0.01936
G1 X135 Y97.93 E1.93158
G1 X135.404 Y97.97 E0.0196
G1 X135.793 Y98.088 E0.01963
G1 X136.152 Y98.28 E0.01966
G1 X136.466 Y98.538 E0.01962
G1 X136.723 Y98.853 E0.01963
G1 X136.914 Y99.212 E0.01964
G1 X137.031 Y99.601 E0.01962
G1 X137.07 Y100 E0.01936
G1 X137.07 Y130 E1.44869
G1 X137.03 Y130.404 E0.0196
G1 X136.912 Y130.793 E0.01963
G1 X136.72 Y131.152 E0.01966
G1 X136.462 Y131.466 E0.01962
G1 X136.147 Y131.723 E0.01963
G1 X135.788 Y131.914 E0.01964
G1 X135.399 Y132.031 E0.01962
G1 X135 Y132.07 E0.01936
G1 X95 Y132.07 E1.93158
G1 X94.596 Y132.03 E0.0196
G1 X94.207 Y131.912 E0.01963
G1 X93.848 Y131.72 E0.01966
G1 X93.534 Y131.462 E0.01962
G1 X93.277 Y131.147 E0.01963
G1 X93.086 Y130.788 E0.01964
G1 X92.969 Y130.399 E0.01962
G1 X92.93 Y130 E0.01936
G1 X92.93 Y100 E1.44869
G1 X92.97 Y99.596 E0.0196
G1 X93.088 Y99.207 E0.01963
G1 X93.21 Y98.98 E0.01244
G0 F1620 X93.28 Y98.848
G0 X93.538 Y98.534
G0 F3600 X93.989 Y98.747
G1 F1800 E0.02685
G1 X94.292 Y98.554 E0.01735
G1 X94.629 Y98.433 E0.01729
G1 X95 Y98.39 E0.01804
G1 X135 Y98.39 E1.93158
G1 X135.356 Y98.43 E0.0173
G1 X135.695 Y98.548 E0.01733
G1 X135.999 Y98.737 E0.01729
G1 X136.253 Y98.989 E0.01728
G1 X136.446 Y99.292 E0.01735
G1 X136.567 Y99.629 E0.01729
G1 X136.61 Y100 E0.01804
G1 X136.61 Y130 E1.44869
G1 X136.57 Y130.356 E0.0173
G1 X136.452 Y130.695 E0.01733
G1 X136.263 Y130.999 E0.01729
G1 X136.011 Y131.253 E0.01728
G1 X135.708 Y131.446 E0.01735
G1 X135.371 Y131.567 E0.01729
G1 X135 Y131.61 E0.01804
G1 X95 Y131.61 E1.93158
G1 X94.644 Y131.57 E0.0173
G1 X94.305 Y131.452 E0.01733
G1 X94.001 Y131.263 E0.01729
G1 X93.747 Y131.011 E0.01728
G1 X93.554 Y130.708 E0.01735
G1 X93.433 Y130.371 E0.01729
G1 X93.39 Y130 E0.01804
G1 X93.39 Y100 E1.44869
G1 X93.43 Y99.644 E0.0173
G1 X93.548 Y99.305 E0.01733
G1 X93.632 Y99.17 E0.00768
G0 F1620 X93.737 Y99.001
G0 X93.989 Y98.747
G0 F3600 X94.192 Y99.182
G1 F1800 E0.02685
G1 X94.434 Y98.999 E0.01465
G1 X94.714 Y98.886 E0.01458
G1 X95 Y98.85 E0.01392
G1 X135 Y98.85 E1.93158
G1 X135.3 Y98.89 E0.01462
G1 X135.579 Y99.007 E0.01461
G1 X135.818 Y99.192 E0.01459
G1 X136.001 Y99.434 E0.01465
G1 X136.114 Y99.714 E0.01458
G1 X136.15 Y100 E0.01392
G1 X136.15 Y130 E1.44869
G1 X136.11 Y130.3 E0.01462
G1 X135.993 Y130.579 E0.01461
G1 X135.808 Y130.818 E0.01459
G1 X135.566 Y131.001 E0.01465
G1 X135.286 Y131.114 E0.01458
G1 X135 Y131.15 E0.01392
G1 X95 Y131.15 E1.93158
G1 X94.7 Y131.11 E0.01462
G1 X94.421 Y130.993 E0.01461
G1 X94.182 Y130.808 E0.01459
G1 X93.999 Y130.566 E0.01465
G1 X93.886 Y130.286 E0.01458
G1 X93.85 Y130 E0.01392
G1 X93.85 Y100 E1.44869
G1 X93.89 Y99.7 E0.01462
G1 X93.909 Y99.655 E0.00236
G0 F1620 X94.007 Y99.421
G0 X94.192 Y99.182
G0 F3600 X94.464 Y99.565
G1 F1800 E0.02685
G1 X94.64 Y99.411 E0.01129
G1 X94.858 Y99.325 E0.01132
G1 X95 Y99.31 E0.0069
G1 X135 Y99.31 E1.93158
G1 X135.231 Y99.35 E0.01132
G1 X135.435 Y99.464 E0.01128
G1 X135.589 Y99.64 E0.01129
G1 X135.675 Y99.858 E0.01132
G1 X135.69 Y100 E0.0069
G1 X135.69 Y130 E1.44869
G1 X135.65 Y130.231 E0.01132
G1 X135.536 Y130.435 E0.01128
G1 X135.36 Y130.589 E0.01129
G1 X135.142 Y130.675 E0.01132
G1 X135 Y130.69 E0.0069
G1 X95 Y130.69 E1.93158
G1 X94.769 Y130.65 E0.01132
G1 X94.565 Y130.536 E0.01128
G1 X94.411 Y130.36 E0.01129
G1 X94.325 Y130.142 E0.01132
G1 X94.31 Y130 E0.0069
G1 X94.31 Y100.089 E1.44439
G0 F1620 X94.31 Y100
G0 X94.35 Y99.769
G0 X94.464 Y99.565
G0 F3600 X94.809 Y99.872
G1 F1800 E0.02685
G1 X94.913 Y99.787 E0.00649
G1 X95 Y99.77 E0.00428
G1 X135 Y99.77 E1.93158
G1 X135.128 Y99.809 E0.00646
G1 X135.213 Y99.913 E0.00649
G1 X135.23 Y100 E0.00428
G1 X135.23 Y130 E1.44869
G1 X135.191 Y130.128 E0.00646
G1 X135.087 Y130.213 E0.00649
G1 X135 Y130.23 E0.00428
G1 X95 Y130.23 E1.93158
G1 X94.872 Y130.191 E0.00646
G1 X94.787 Y130.087 E0.00649
G1 X94.77 Y130 E0.00428
G1 X94.77 Y100.423 E1.42826
G0 F1620 X94.77 Y100
G0 X94.809 Y99.872
G1 F1800 E-6.5
G0 F3600 X134.77 Y129.77
;TYPE:WALL-OUTER
G1 F1800 E6.52685
G1 X95.23 Y129.77 E1.90937
G1 X95.23 Y100.23 E1.42647
G1 X134.77 Y100.23 E1.90937
G1 X134.77 Y129.214 E1.39962
G0 F1620 X134.77 Y129.77
G0 F3600 X134.57 Y129.77
G0 X134.32 Y129.32
;TYPE:SKIN
G1 F1800 E0.02685
G1 X95.68 Y129.32 E1.86591
G1 X95.68 Y100.68 E1.38301
G1 X134.32 Y100.68 E1.86591
G1 X134.32 Y128.764 E1.35616
G0 F1620 X134.32 Y129.32
G1 F1800 E-6.5
G0 F3600 X134.109 Y101.582
G1 F1800 E6.52685
G1 X133.416 Y100.889 E0.04733
G1 X133.346 Y100.819
G0 F3600 X132.766 Y100.889
G1 F1800 X134.109 Y102.233 E0.09175
G1 X134.179 Y102.303
G0 F3600 X134.109 Y102.884
G1 F1800 X132.115 Y100.889 E0.13621
G1 X132.045 Y100.819
G0 F3600 X131.465 Y100.889
G1 F1800 X134.109 Y103.534 E0.1806
G1 X134.179 Y103.604
G0 F3600 X134.109 Y104.185
G1 F1800 X130.814 Y100.889 E0.22506
G1 X130.744 Y100.819
G0 F3600 X130.164 Y100.889
G1 F1800 X134.109 Y104.835 E0.26945
G1 X134.179 Y104.905
G0 F3600 X134.109 Y105.486
G1 F1800 X129.513 Y100.889 E0.3139
G1 X129.443 Y100.819
G0 F3600 X128.863 Y100.889
G1 F1800 X134.109 Y106.136 E0.35829
G1 X134.179 Y106.206
G0 F3600 X134.109 Y106.787
G1 F1800 X128.212 Y100.889 E0.40275
G1 X128.142 Y100.819
G0 F3600 X127.562 Y100.889
G1 F1800 X134.109 Y107.437 E0.44714
G1 X134.179 Y107.507
G0 F3600 X134.109 Y108.088
G1 F1800 X126.911 Y100.889 E0.4916
G1 X126.841 Y100.819
G0 F3600 X126.26 Y100.889
G1 F1800 X134.109 Y108.738 E0.53602
G1 X134.179 Y108.808
G0 F3600 X134.109 Y109.389
G1 F1800 X125.61 Y100.889 E0.58045
G1 X125.54 Y100.819
G0 F3600 X124.959 Y100.889
G1 F1800 X134.109 Y110.039 E0.62487
G1 X134.179 Y110.109
G0 F3600 X134.109 Y110.69
G1 F1800 X124.309 Y100.889 E0.66929
G1 X124.239 Y100.819
G0 F3600 X123.658 Y100.889
G1 F1800 X134.109 Y111.341 E0.71375
G1 X134.179 Y111.411
G0 F3600 X134.109 Y111.991
G1 F1800 X123.008 Y100.889 E0.75814
G1 X122.938 Y100.819
G0 F3600 X122.357 Y100.889
G1 F1800 X134.109 Y112.642 E0.8026
G1 X134.179 Y112.712
G0 F3600 X134.109 Y113.292
G1 F1800 X121.707 Y100.889 E0.84699
G1 X121.637 Y100.819
G0 F3600 X121.056 Y100.889
G1 F1800 X134.109 Y113.943 E0.89145
G1 X134.179 Y114.013
G0 F3600 X134.109 Y114.593
G1 F1800 X120.406 Y100.889 E0.93584
G1 X120.336 Y100.819
G0 F3600 X119.755 Y100.889
G1 F1800 X134.109 Y115.244 E0.98029
G1 X134.179 Y115.314
G0 F3600 X134.109 Y115.894
G1 F1800 X119.105 Y100.889 E1.02468
G1 X119.035 Y100.819
G0 F3600 X118.454 Y100.889
G1 F1800 X134.109 Y116.545 E1.06914
G1 X134.179 Y116.615
G0 F3600 X134.109 Y117.195
G1 F1800 X117.803 Y100.889 E1.11357
G1 X117.733 Y100.819
G0 F3600 X117.153 Y100.889
G1 F1800 X134.109 Y117.846 E1.15799
G1 X134.179 Y117.916
G0 F3600 X134.109 Y118.496
G1 F1800 X116.502 Y100.889 E1.20241
G1 X116.432 Y100.819
G0 F3600 X115.852 Y100.889
G1 F1800 X134.109 Y119.147 E1.24684
G1 X134.179 Y119.217
G0 F3600 X134.109 Y119.798
G1 F1800 X115.201 Y100.889 E1.29129
G1 X115.131 Y100.819
G0 F3600 X114.551 Y100.889
G1 F1800 X134.109 Y120.448 E1.33568
G1 X134.179 Y120.518
G0 F3600 X134.109 Y121.099
G1 F1800 X113.9 Y100.889 E1.38014
G1 X113.83 Y100.819
G0 F3600 X113.25 Y100.889
G1 F1800 X134.109 Y121.749 E1.42453
G1 X134.179 Y121.819
G0 F3600 X134.109 Y122.4
G1 F1800 X112.599 Y100.889 E1.46899
G1 X112.529 Y100.819
G0 F3600 X111.949 Y100.889
G1 F1800 X134.109 Y123.05 E1.51338
G1 X134.179 Y123.12
G0 F3600 X134.109 Y123.701
G1 F1800 X111.298 Y100.889 E1.55784
G1 X111.228 Y100.819
G0 F3600 X110.648 Y100.889
G1 F1800 X134.109 Y124.351 E1.60223
G1 X134.179 Y124.421
G0 F3600 X134.109 Y125.002
G1 F1800 X109.997 Y100.889 E1.64668
G1 X109.927 Y100.819
G0 F3600 X109.346 Y100.889
G1 F1800 X134.109 Y125.652 E1.69111
G1 X134.179 Y125.722
G0 F3600 X134.109 Y126.303
G1 F1800 X108.696 Y100.889 E1.73553
G1 X108.626 Y100.819
G0 F3600 X108.045 Y100.889
G1 F1800 X134.109 Y126.953 E1.77996
G1 X134.179 Y127.023
G0 F3600 X134.109 Y127.604
G1 F1800 X107.395 Y100.889 E1.82438
G1 X107.325 Y100.819
G0 F3600 X106.744 Y100.889
G1 F1800 X134.109 Y128.255 E1.86884
G1 X134.179 Y128.325
G0 F3600 X134.109 Y128.905
G1 F1800 X106.094 Y100.889 E1.91323
G1 X106.024 Y100.819
G0 F3600 X105.443 Y100.889
G1 F1800 X133.663 Y129.109 E1.92719
G1 X133.733 Y129.179
G0 F3600 X133.013 Y129.109
G1 F1800 X104.793 Y100.889 E1.92719
G1 X104.723 Y100.819
G0 F3600 X104.142 Y100.889
G1 F1800 X132.362 Y129.109 E1.92719
G1 X132.432 Y129.179
G0 F3600 X131.712 Y129.109
G1 F1800 X103.492 Y100.889 E1.92719
G1 X103.422 Y100.819
G0 F3600 X102.841 Y100.889
G1 F1800 X131.061 Y129.109 E1.92719
G1 X131.131 Y129.179
G0 F3600 X130.41 Y129.109
G1 F1800 X102.191 Y100.889 E1.92716
G1 X102.121 Y100.819
G0 F3600 X101.54 Y100.889
G1 F1800 X129.76 Y129.109 E1.92719
G1 X129.83 Y129.179
G0 F3600 X129.109 Y129.109
G1 F1800 X100.889 Y100.889 E1.92719
G1 X100.819 Y100.819
G0 F3600 X100.239 Y100.889
G1 F1800 X128.459 Y129.109 E1.92719
G1 X128.529 Y129.179
G0 F3600 X127.808 Y129.109
G1 F1800 X99.588 Y100.889 E1.92719
G1 X99.518 Y100.819
G0 F3600 X98.938 Y100.889
G1 F1800 X127.158 Y129.109 E1.92719
G1 X127.228 Y129.179
G0 F3600 X126.507 Y129.109
G1 F1800 X98.287 Y100.889 E1.92719
G1 X98.217 Y100.819
G0 F3600 X97.637 Y100.889
G1 F1800 X125.857 Y129.109 E1.92719
G1 X125.927 Y129.179
G0 F3600 X125.206 Y129.109
G1 F1800 X96.986 Y100.889 E1.92719
G1 X96.916 Y100.819
G0 F3600 X96.336 Y100.889
G1 F1800 X124.556 Y129.109 E1.92719
G1 X124.626 Y129.179
G0 F3600 X123.905 Y129.109
G1 F1800 X95.89 Y101.094 E1.91319
G1 X95.82 Y101.024
G0 F3600 X95.89 Y101.744
G1 F1800 X123.255 Y129.109 E1.8688
G1 X123.325 Y129.179
G0 F3600 X122.604 Y129.109
G1 F1800 X95.89 Y102.395 E1.82435
G1 X95.82 Y102.325
G0 F3600 X95.89 Y103.045
G1 F1800 X121.953 Y129.109 E1.77992
G1 X122.023 Y129.179
G0 F3600 X121.303 Y129.109
G1 F1800 X95.89 Y103.696 E1.7355
G1 X95.82 Y103.626
G0 F3600 X95.89 Y104.347
G1 F1800 X120.652 Y129.109 E1.69104
G1 X120.722 Y129.179
G0 F3600 X120.002 Y129.109
G1 F1800 X95.89 Y104.997 E1.64665
G1 X95.82 Y104.927
G0 F3600 X95.89 Y105.648
G1 F1800 X119.351 Y129.109 E1.60219
G1 X119.421 Y129.179
G0 F3600 X118.701 Y129.109
G1 F1800 X95.89 Y106.298 E1.5578
G1 X95.82 Y106.228
G0 F3600 X95.89 Y106.949
G1 F1800 X118.05 Y129.109 E1.51335
G1 X118.12 Y129.179
G0 F3600 X117.4 Y129.109
G1 F1800 X95.89 Y107.599 E1.46896
G1 X95.82 Y107.529
G0 F3600 X95.89 Y108.25
G1 F1800 X116.749 Y129.109 E1.4245
G1 X116.819 Y129.179
G0 F3600 X116.099 Y129.109
G1 F1800 X95.89 Y108.9 E1.38011
G1 X95.82 Y108.83
G0 F3600 X95.89 Y109.551
G1 F1800 X115.448 Y129.109 E1.33565
G1 X115.518 Y129.179
G0 F3600 X114.798 Y129.109
G1 F1800 X95.89 Y110.201 E1.29126
G1 X95.82 Y110.131
G0 F3600 X95.89 Y110.852
G1 F1800 X114.147 Y129.109 E1.2468
G1 X114.217 Y129.179
G0 F3600 X113.497 Y129.109
G1 F1800 X95.89 Y111.502 E1.20241
G1 X95.82 Y111.432
G0 F3600 X95.89 Y112.153
G1 F1800 X112.846 Y129.109 E1.15795
G1 X112.916 Y129.179
G0 F3600 X112.195 Y129.109
G1 F1800 X95.89 Y112.804 E1.1135
G1 X95.82 Y112.734
G0 F3600 X95.89 Y113.454
G1 F1800 X111.545 Y129.109 E1.06911
G1 X111.615 Y129.179
G0 F3600 X110.894 Y129.109
G1 F1800 X95.89 Y114.105 E1.02465
G1 X95.82 Y114.035
G0 F3600 X95.89 Y114.755
G1 F1800 X110.244 Y129.109 E0.98026
G1 X110.314 Y129.179
G0 F3600 X109.593 Y129.109
G1 F1800 X95.89 Y115.406 E0.9358
G1 X95.82 Y115.336
G0 F3600 X95.89 Y116.056
G1 F1800 X108.943 Y129.109 E0.89141
G1 X109.013 Y129.179
G0 F3600 X108.292 Y129.109
G1 F1800 X95.89 Y116.707 E0.84695
G1 X95.82 Y116.637
G0 F3600 X95.89 Y117.357
G1 F1800 X107.642 Y129.109 E0.80256
G1 X107.712 Y129.179
G0 F3600 X106.991 Y129.109
G1 F1800 X95.89 Y118.008 E0.75811
G1 X95.82 Y117.938
G0 F3600 X95.89 Y118.658
G1 F1800 X106.341 Y129.109 E0.71372
G1 X106.411 Y129.179
G0 F3600 X105.69 Y129.109
G1 F1800 X95.89 Y119.309 E0.66926
G1 X95.82 Y119.239
G0 F3600 X95.89 Y119.959
G1 F1800 X105.04 Y129.109 E0.62487
G1 X105.11 Y129.179
G0 F3600 X104.389 Y129.109
G1 F1800 X95.89 Y120.61 E0.58041
G1 X95.82 Y120.54
G0 F3600 X95.89 Y121.261
G1 F1800 X103.738 Y129.109 E0.53595
G1 X103.808 Y129.179
G0 F3600 X103.088 Y129.109
G1 F1800 X95.89 Y121.911 E0.49156
G1 X95.82 Y121.841
G0 F3600 X95.89 Y122.562
G1 F1800 X102.437 Y129.109 E0.44711
G1 X102.507 Y129.179
G0 F3600 X101.787 Y129.109
G1 F1800 X95.89 Y123.212 E0.40272
G1 X95.82 Y123.142
G0 F3600 X95.89 Y123.863
G1 F1800 X101.136 Y129.109 E0.35826
G1 X101.206 Y129.179
G0 F3600 X100.486 Y129.109
G1 F1800 X95.89 Y124.513 E0.31387
G1 X95.82 Y124.443
G0 F3600 X95.89 Y125.164
G1 F1800 X99.835 Y129.109 E0.26941
G1 X99.905 Y129.179
G0 F3600 X99.185 Y129.109
G1 F1800 X95.89 Y125.814 E0.22502
G1 X95.82 Y125.744
G0 F3600 X95.89 Y126.465
G1 F1800 X98.534 Y129.109 E0.18056
G1 X98.604 Y129.179
G0 F3600 X97.884 Y129.109
G1 F1800 X95.89 Y127.115 E0.13617
G1 X95.82 Y127.045
G0 F3600 X95.89 Y127.766
G1 F1800 X97.233 Y129.109 E0.09172
G1 X97.303 Y129.179
G0 F3600 X96.583 Y129.109
G1 F1800 X95.89 Y128.416 E0.04733
G1 X95.82 Y128.346
G1 F1800 E-6.5
G0 F3600 X134.8 Y129.8
;TIME_ELAPSED:125.498805
;LAYER:1
M140 S60
M106 S255
G0 F5400 X134.8 Y129.8 Z0.45
;TYPE:WALL-OUTER
G1 F1800 E6.5
G1 F2100 X95.2 Y129.8 E1.3171
G1 X95.2 Y100.2 E0.9845
G1 X134.8 Y100.2 E1.3171
G1 X134.8 Y129 E0.95789
G0 F1890 X134.8 Y129.8
G0 F5400 X134.6 Y129.8
G0 X134.41 Y129.41
;TYPE:SKIN
G1 F1800 E0.02661
G1 X95.59 Y129.41 E1.29116
G1 X95.59 Y100.59 E0.95856
G1 X134.41 Y100.59 E1.29116
G1 X134.41 Y128.61 E0.93195
G0 F1620 X134.41 Y129.41
G0 F5400 X134.229 Y128.814
G1 F1800 E0.02661
G1 X133.813 Y129.23 E0.01957
G0 F5400 X133.247 Y129.23
G1 F1800 X134.229 Y128.248 E0.04619
G1 X134.299 Y128.178
G0 F5400 X134.229 Y127.682
G1 F1800 X132.682 Y129.23 E0.07279
G1 X132.612 Y129.3
G0 F5400 X132.116 Y129.23
G1 F1800 X134.229 Y127.117 E0.09939
G1 X134.299 Y127.047
G0 F5400 X134.229 Y126.551
G1 F1800 X131.55 Y129.23 E0.12601
G1 X131.48 Y129.3
G0 F5400 X130.985 Y129.23
G1 F1800 X134.229 Y125.985 E0.15261
G1 X134.299 Y125.915
G0 F5400 X134.229 Y125.42
G1 F1800 X130.419 Y129.23 E0.17921
G1 X130.349 Y129.3
G0 F5400 X129.853 Y129.23
G1 F1800 X134.229 Y124.854 E0.20583
G1 X134.299 Y124.784
G0 F5400 X134.229 Y124.288
G1 F1800 X129.288 Y129.23 E0.23243
G1 X129.218 Y129.3
G0 F5400 X128.722 Y129.23
G1 F1800 X134.229 Y123.723 E0.25903
G1 X134.299 Y123.653
G0 F5400 X134.229 Y123.157
G1 F1800 X128.156 Y129.23 E0.28566
G1 X128.086 Y129.3
G0 F5400 X127.591 Y129.23
G1 F1800 X134.229 Y122.591 E0.31225
G1 X134.299 Y122.521
G0 F5400 X134.229 Y122.026
G1 F1800 X127.025 Y129.23 E0.33885
G1 X126.955 Y129.3
G0 F5400 X126.459 Y129.23
G1 F1800 X134.229 Y121.46 E0.36548
G1 X134.299 Y121.39
G0 F5400 X134.229 Y120.894
G1 F1800 X125.893 Y129.23 E0.3921
G1 X125.823 Y129.3
G0 F5400 X125.328 Y129.23
G1 F1800 X134.229 Y120.329 E0.41868
G1 X134.299 Y120.259
G0 F5400 X134.229 Y119.763
G1 F1800 X124.762 Y129.23 E0.4453
G1 X124.692 Y129.3
G0 F5400 X124.196 Y129.23
G1 F1800 X134.229 Y119.197 E0.47192
G1 X134.299 Y119.127
G0 F5400 X134.229 Y118.632
G1 F1800 X123.631 Y129.23 E0.4985
G1 X123.561 Y129.3
G0 F5400 X123.065 Y129.23
G1 F1800 X134.229 Y118.066 E0.52512
G1 X134.299 Y117.996
G0 F5400 X134.229 Y117.5
G1 F1800 X122.499 Y129.23 E0.55174
G1 X122.429 Y129.3
G0 F5400 X121.934 Y129.23
G1 F1800 X134.229 Y116.934 E0.57834
G1 X134.299 Y116.864
G0 F5400 X134.229 Y116.369
G1 F1800 X121.368 Y129.23 E0.60494
G1 X121.298 Y129.3
G0 F5400 X120.802 Y129.23
G1 F1800 X134.229 Y115.803 E0.63156
G1 X134.299 Y115.733
G0 F5400 X134.229 Y115.237
G1 F1800 X120.237 Y129.23 E0.65816
G1 X120.167 Y129.3
G0 F5400 X119.671 Y129.23
G1 F1800 X134.229 Y114.672 E0.68476
G1 X134.299 Y114.602
G0 F5400 X134.229 Y114.106
G1 F1800 X119.105 Y129.23 E0.71139
G1 X119.035 Y129.3
G0 F5400 X118.54 Y129.23
G1 F1800 X134.229 Y113.54 E0.73799
G1 X134.299 Y113.47
G0 F5400 X134.229 Y112.975
G1 F1800 X117.974 Y129.23 E0.76459
