;FLAVOR:RepRap
;TIME:3629
;Filament used: 3.82253m
;Layer height: 0.2
;Generated with Cura_SteamEngine 3.4.1
T0
M104 S195
M109 S195
M82 ;absolute extrusion mode
G21                ;metric values
G90                ;absolute positioning
M107              ;start with the fan off
M83  	       ; extruder relative mode
M83 ;relative extrusion mode
G1 F1800 E-6.5
;LAYER_COUNT:373
;LAYER:0
M107
M204 T5000
G0 F3600 X57.952 Y70.369 Z0.3
M204 P3000
;TYPE:SKIRT
G1 F1800 E6.5
G1 X58.591 Y69.878 E0.04467
G1 X59.277 Y69.452 E0.04476
G1 X60.001 Y69.096 E0.04472
G1 X60.756 Y68.814 E0.04467
G1 X61.536 Y68.608 E0.04472
G1 X62.333 Y68.48 E0.04474
G1 X63.159 Y68.431 E0.04586
G1 X63.662 Y68.427 E0.02788
G1 X64.468 Y68.461 E0.04471
G1 X65.267 Y68.574 E0.04473
G1 X66.051 Y68.766 E0.04474
G1 X66.811 Y69.034 E0.04467
G1 X67.542 Y69.376 E0.04473
G1 X68.235 Y69.789 E0.04472
G1 X68.884 Y70.269 E0.04474
G1 X69.609 Y70.94 E0.05476
G1 X69.808 Y71.148 E0.01596
G1 X70.243 Y71.651 E0.03686
G1 X70.384 Y71.469 E0.01276
G1 X70.675 Y71.148 E0.02402
G1 X70.874 Y70.94 E0.01596
G1 X71.46 Y70.385 E0.04474
G1 X72.098 Y69.891 E0.04472
G1 X72.782 Y69.463 E0.04472
G1 X73.504 Y69.105 E0.04467
G1 X74.259 Y68.819 E0.04475
G1 X75.038 Y68.61 E0.04471
G1 X75.834 Y68.479 E0.04471
G1 X76.804 Y68.427 E0.05384
G1 X77.308 Y68.43 E0.02794
G1 X78.114 Y68.475 E0.04474
G1 X78.911 Y68.599 E0.04471
G1 X79.692 Y68.802 E0.04473
G1 X80.449 Y69.081 E0.04472
G1 X81.175 Y69.433 E0.04472
G1 X81.862 Y69.856 E0.04472
G1 X82.504 Y70.344 E0.0447
G1 X83.094 Y70.894 E0.04471
G1 X83.628 Y71.499 E0.04473
G1 X84.098 Y72.154 E0.04468
G1 X84.502 Y72.853 E0.04475
G1 X84.834 Y73.588 E0.0447
G1 X85.092 Y74.352 E0.0447
G1 X85.273 Y75.138 E0.04471
G1 X85.38 Y76.006 E0.04848
G1 X85.417 Y76.539 E0.02961
G1 X85.433 Y77.346 E0.04474
G1 X85.369 Y78.15 E0.04471
G1 X85.226 Y78.944 E0.04472
G1 X85.061 Y79.549 E0.03476
G1 X83.017 Y86.038 E0.37709
G1 X83.034 Y93.179 E0.39581
G1 X85.066 Y99.68 E0.37753
G1 X85.269 Y100.461 E0.04473
G1 X85.392 Y101.258 E0.0447
G1 X85.437 Y102.063 E0.04469
G1 X85.415 Y102.702 E0.03544
G1 X85.376 Y103.235 E0.02962
G1 X85.278 Y104.036 E0.04473
G1 X85.1 Y104.823 E0.04472
G1 X84.846 Y105.588 E0.04468
G1 X84.517 Y106.325 E0.04474
G1 X84.116 Y107.025 E0.04472
G1 X83.649 Y107.683 E0.04472
G1 X83.118 Y108.29 E0.0447
G1 X82.53 Y108.843 E0.04474
G1 X81.891 Y109.334 E0.04467
G1 X81.205 Y109.76 E0.04476
G1 X80.481 Y110.116 E0.04472
G1 X79.726 Y110.398 E0.04467
G1 X78.946 Y110.604 E0.04472
G1 X78.149 Y110.732 E0.04474
G1 X77.323 Y110.781 E0.04586
G1 X76.82 Y110.785 E0.02788
G1 X76.014 Y110.751 E0.04471
G1 X75.215 Y110.638 E0.04473
G1 X74.431 Y110.446 E0.04474
G1 X73.671 Y110.178 E0.04467
G1 X72.94 Y109.836 E0.04473
G1 X72.247 Y109.423 E0.04472
G1 X71.598 Y108.943 E0.04474
G1 X70.873 Y108.272 E0.05476
G1 X70.675 Y108.065 E0.01588
G1 X70.239 Y107.561 E0.03694
G1 X70.098 Y107.743 E0.01276
G1 X69.807 Y108.064 E0.02402
G1 X69.608 Y108.272 E0.01596
G1 X69.022 Y108.827 E0.04474
G1 X68.384 Y109.321 E0.04472
G1 X67.7 Y109.749 E0.04472
G1 X66.978 Y110.107 E0.04467
G1 X66.223 Y110.393 E0.04475
G1 X65.444 Y110.602 E0.04471
G1 X64.648 Y110.733 E0.04471
G1 X63.661 Y110.785 E0.05478
G1 X63.158 Y110.781 E0.02788
G1 X62.353 Y110.734 E0.0447
G1 X61.556 Y110.608 E0.04472
G1 X60.776 Y110.404 E0.04469
G1 X60.019 Y110.124 E0.04474
G1 X59.294 Y109.77 E0.04472
G1 X58.608 Y109.346 E0.0447
G1 X57.967 Y108.856 E0.04472
G1 X57.377 Y108.306 E0.04471
G1 X56.845 Y107.699 E0.04474
G1 X56.376 Y107.043 E0.0447
G1 X55.974 Y106.344 E0.04469
G1 X55.643 Y105.608 E0.04473
G1 X55.387 Y104.843 E0.04471
G1 X55.207 Y104.057 E0.04469
G1 X55.104 Y103.221 E0.04669
G1 X55.066 Y102.689 E0.02956
G1 X55.048 Y101.882 E0.04474
G1 X55.111 Y101.078 E0.0447
G1 X55.252 Y100.284 E0.0447
G1 X55.421 Y99.663 E0.03567
G1 X57.465 Y93.176 E0.37699
G1 X57.448 Y86.038 E0.39565
G1 X55.415 Y79.532 E0.37781
G1 X55.213 Y78.751 E0.04471
G1 X55.089 Y77.954 E0.04471
G1 X55.045 Y77.148 E0.04474
G1 X55.067 Y76.51 E0.03538
G1 X55.106 Y75.977 E0.02962
G1 X55.204 Y75.176 E0.04473
G1 X55.382 Y74.389 E0.04472
G1 X55.636 Y73.624 E0.04468
G1 X55.965 Y72.887 E0.04474
G1 X56.366 Y72.187 E0.04472
G1 X56.833 Y71.529 E0.04472
G1 X57.364 Y70.922 E0.0447
G1 X57.6 Y70.7 E0.01796
G0 F1620 X57.952 Y70.369
G0 F3600 X58.369 Y70.595
G1 F1800 E0.02683
G1 X59.002 Y70.131 E0.0435
G1 X59.68 Y69.735 E0.04352
G1 X60.394 Y69.41 E0.04348
G1 X61.137 Y69.159 E0.04347
G1 X61.902 Y68.985 E0.04349
G1 X62.681 Y68.89 E0.0435
G1 X63.163 Y68.871 E0.02674
G1 X63.666 Y68.867 E0.02788
G1 X64.45 Y68.901 E0.0435
G1 X65.226 Y69.014 E0.04347
G1 X65.987 Y69.206 E0.0435
G1 X66.724 Y69.474 E0.04347
G1 X67.43 Y69.816 E0.04348
G1 X68.098 Y70.228 E0.0435
G1 X68.721 Y70.706 E0.04352
G1 X69.291 Y71.244 E0.04344
G1 X69.49 Y71.452 E0.01596
G1 X70.003 Y72.046 E0.0435
G1 X70.237 Y72.381 E0.02265
G1 X70.274 Y72.323 E0.00381
G1 X70.993 Y71.452 E0.0626
G1 X71.192 Y71.244 E0.01596
G1 X71.763 Y70.705 E0.04352
G1 X72.385 Y70.228 E0.04345
G1 X73.053 Y69.816 E0.0435
G1 X73.759 Y69.474 E0.04348
G1 X74.497 Y69.206 E0.04352
G1 X75.257 Y69.014 E0.04345
G1 X76.034 Y68.901 E0.04352
G1 X76.802 Y68.867 E0.04261
G1 X77.306 Y68.87 E0.02794
G1 X78.089 Y68.915 E0.04347
G1 X78.864 Y69.039 E0.0435
G1 X79.622 Y69.241 E0.04348
G1 X80.355 Y69.52 E0.04347
G1 X81.057 Y69.871 E0.0435
G1 X81.719 Y70.292 E0.04348
G1 X82.335 Y70.779 E0.04353
G1 X82.898 Y71.325 E0.04347
G1 X83.402 Y71.926 E0.04348
G1 X83.843 Y72.575 E0.04349
G1 X84.215 Y73.266 E0.0435
G1 X84.515 Y73.991 E0.04349
G1 X84.74 Y74.743 E0.04351
G1 X84.887 Y75.513 E0.04345
G1 X84.942 Y76.037 E0.0292
G1 X84.979 Y76.57 E0.02961
G1 X84.993 Y77.354 E0.04346
G1 X84.927 Y78.136 E0.0435
G1 X84.783 Y78.907 E0.04347
G1 X84.641 Y79.416 E0.02929
G1 X82.577 Y85.969 E0.38081
G1 X82.594 Y93.246 E0.40335
G1 X84.646 Y99.811 E0.38125
G1 X84.842 Y100.571 E0.0435
G1 X84.959 Y101.347 E0.0435
G1 X84.997 Y102.13 E0.04345
G1 X84.976 Y102.67 E0.02995
G1 X84.937 Y103.203 E0.02962
G1 X84.84 Y103.981 E0.04346
G1 X84.665 Y104.746 E0.0435
G1 X84.412 Y105.489 E0.04351
G1 X84.085 Y106.202 E0.04348
G1 X83.687 Y106.878 E0.04348
G1 X83.223 Y107.511 E0.0435
G1 X82.696 Y108.092 E0.04348
G1 X82.113 Y108.617 E0.04349
G1 X81.48 Y109.081 E0.0435
G1 X80.802 Y109.477 E0.04352
G1 X80.088 Y109.802 E0.04348
G1 X79.345 Y110.053 E0.04347
G1 X78.58 Y110.227 E0.04349
G1 X77.801 Y110.322 E0.0435
G1 X77.319 Y110.341 E0.02674
G1 X76.816 Y110.345 E0.02788
G1 X76.032 Y110.311 E0.0435
G1 X75.256 Y110.198 E0.04347
G1 X74.495 Y110.006 E0.0435
G1 X73.758 Y109.738 E0.04347
G1 X73.052 Y109.396 E0.04348
G1 X72.384 Y108.984 E0.0435
G1 X71.761 Y108.506 E0.04352
G1 X71.191 Y107.967 E0.04348
G1 X70.993 Y107.76 E0.01588
G1 X70.48 Y107.167 E0.04346
G1 X70.244 Y106.83 E0.0228
G1 X70.207 Y106.889 E0.00386
G1 X69.489 Y107.76 E0.06257
G1 X69.29 Y107.968 E0.01596
G1 X68.719 Y108.507 E0.04352
G1 X68.097 Y108.984 E0.04345
G1 X67.429 Y109.396 E0.0435
G1 X66.723 Y109.738 E0.04348
G1 X65.985 Y110.006 E0.04352
G1 X65.225 Y110.198 E0.04345
G1 X64.448 Y110.311 E0.04352
G1 X63.665 Y110.345 E0.04344
G1 X63.162 Y110.341 E0.02788
G1 X62.379 Y110.295 E0.04347
G1 X61.604 Y110.169 E0.04352
G1 X60.846 Y109.965 E0.04351
G1 X60.113 Y109.685 E0.04349
G1 X59.413 Y109.332 E0.04345
G1 X58.752 Y108.91 E0.04347
G1 X58.137 Y108.422 E0.04352
G1 X57.575 Y107.875 E0.04347
G1 X57.072 Y107.273 E0.04348
G1 X56.632 Y106.623 E0.04351
G1 X56.261 Y105.931 E0.04352
G1 X55.963 Y105.206 E0.04345
G1 X55.739 Y104.453 E0.04354
G1 X55.594 Y103.683 E0.04343
G1 X55.543 Y103.19 E0.02747
G1 X55.505 Y102.658 E0.02956
G1 X55.489 Y101.873 E0.04352
G1 X55.553 Y101.091 E0.04349
G1 X55.696 Y100.32 E0.04346
G1 X55.841 Y99.795 E0.03019
G1 X57.905 Y93.244 E0.3807
G1 X57.888 Y85.97 E0.40318
G1 X55.835 Y79.4 E0.38153
G1 X55.64 Y78.641 E0.04344
G1 X55.523 Y77.865 E0.0435
G1 X55.485 Y77.081 E0.04351
G1 X55.506 Y76.542 E0.0299
G1 X55.545 Y76.009 E0.02962
G1 X55.642 Y75.231 E0.04346
G1 X55.817 Y74.466 E0.0435
G1 X56.07 Y73.723 E0.04351
G1 X56.397 Y73.01 E0.04348
G1 X56.795 Y72.334 E0.04348
G1 X57.259 Y71.701 E0.0435
G1 X57.786 Y71.12 E0.04348
G1 X58.01 Y70.919 E0.01668
G0 F1620 X58.369 Y70.595
G0 F3600 X58.785 Y70.826
G1 F1800 E0.02683
G1 X59.411 Y70.393 E0.04219
G1 X60.08 Y70.027 E0.04227
G1 X60.783 Y69.734 E0.04221
G1 X61.513 Y69.516 E0.04223
G1 X62.262 Y69.375 E0.04224
G1 X63.166 Y69.311 E0.05023
G1 X63.669 Y69.307 E0.02788
G1 X64.43 Y69.341 E0.04222
G1 X65.184 Y69.455 E0.04227
G1 X65.921 Y69.646 E0.0422
G1 X66.634 Y69.914 E0.04222
G1 X67.315 Y70.256 E0.04224
G1 X67.957 Y70.667 E0.04225
G1 X68.552 Y71.142 E0.0422
G1 X68.973 Y71.548 E0.03242
G1 X69.172 Y71.756 E0.01596
G1 X69.669 Y72.334 E0.04225
G1 X70.103 Y72.96 E0.04222
G1 X70.234 Y73.21 E0.01564
G1 X70.248 Y73.183 E0.00169
G1 X70.659 Y72.542 E0.04221
G1 X71.311 Y71.756 E0.0566
G1 X71.51 Y71.548 E0.01596
G1 X72.065 Y71.026 E0.04223
G1 X72.671 Y70.565 E0.0422
G1 X73.323 Y70.17 E0.04225
G1 X74.012 Y69.845 E0.04223
G1 X74.732 Y69.595 E0.04225
G1 X75.473 Y69.421 E0.04219
G1 X76.229 Y69.326 E0.04223
G1 X76.799 Y69.307 E0.03161
G1 X77.303 Y69.31 E0.02794
G1 X78.064 Y69.355 E0.04225
G1 X78.815 Y69.479 E0.04219
G1 X79.55 Y69.681 E0.04225
G1 X80.259 Y69.959 E0.04221
G1 X80.936 Y70.309 E0.04224
G1 X81.572 Y70.729 E0.04225
G1 X82.16 Y71.213 E0.04221
G1 X82.694 Y71.756 E0.04221
G1 X83.169 Y72.352 E0.04224
G1 X83.578 Y72.994 E0.04219
G1 X83.918 Y73.676 E0.04224
G1 X84.185 Y74.39 E0.04225
G1 X84.375 Y75.127 E0.04219
G1 X84.503 Y76.067 E0.05258
G1 X84.54 Y76.6 E0.02961
G1 X84.552 Y77.362 E0.04224
G1 X84.485 Y78.121 E0.04223
G1 X84.339 Y78.869 E0.04224
G1 X84.222 Y79.284 E0.0239
G1 X82.137 Y85.904 E0.3847
G1 X82.154 Y93.314 E0.41072
G1 X84.226 Y99.942 E0.38491
G1 X84.415 Y100.68 E0.04223
G1 X84.526 Y101.434 E0.04224
G1 X84.556 Y102.195 E0.04221
G1 X84.538 Y102.638 E0.02457
G1 X84.499 Y103.171 E0.02962
G1 X84.403 Y103.927 E0.04224
G1 X84.229 Y104.668 E0.04219
G1 X83.978 Y105.388 E0.04226
G1 X83.654 Y106.077 E0.0422
G1 X83.258 Y106.728 E0.04224
G1 X82.797 Y107.334 E0.0422
G1 X82.275 Y107.889 E0.04223
G1 X81.697 Y108.386 E0.04225
G1 X81.071 Y108.819 E0.04219
G1 X80.402 Y109.185 E0.04227
G1 X79.699 Y109.478 E0.04221
G1 X78.969 Y109.696 E0.04223
G1 X78.22 Y109.837 E0.04224
G1 X77.316 Y109.901 E0.05023
G1 X76.813 Y109.905 E0.02788
G1 X76.052 Y109.871 E0.04222
G1 X75.298 Y109.757 E0.04227
G1 X74.561 Y109.566 E0.0422
G1 X73.848 Y109.298 E0.04222
G1 X73.167 Y108.956 E0.04224
G1 X72.525 Y108.545 E0.04225
G1 X71.93 Y108.07 E0.0422
G1 X71.509 Y107.663 E0.03246
G1 X71.311 Y107.456 E0.01588
G1 X70.814 Y106.879 E0.04221
G1 X70.38 Y106.253 E0.04222
G1 X70.248 Y106.001 E0.01577
G1 X70.234 Y106.029 E0.00174
G1 X69.823 Y106.671 E0.04225
G1 X69.171 Y107.456 E0.05656
G1 X68.972 Y107.664 E0.01596
G1 X68.417 Y108.186 E0.04223
G1 X67.811 Y108.647 E0.0422
G1 X67.159 Y109.042 E0.04225
G1 X66.47 Y109.367 E0.04223
G1 X65.75 Y109.617 E0.04225
G1 X65.009 Y109.791 E0.04219
G1 X64.253 Y109.886 E0.04223
G1 X63.668 Y109.905 E0.03244
G1 X63.165 Y109.901 E0.02788
G1 X62.405 Y109.855 E0.0422
G1 X61.653 Y109.729 E0.04226
G1 X60.919 Y109.526 E0.04221
G1 X60.21 Y109.246 E0.04225
G1 X59.535 Y108.894 E0.0422
G1 X58.9 Y108.473 E0.04223
G1 X58.312 Y107.988 E0.04225
G1 X57.779 Y107.444 E0.04221
G1 X57.306 Y106.847 E0.04222
G1 X56.898 Y106.204 E0.04221
G1 X56.559 Y105.522 E0.04221
G1 X56.294 Y104.807 E0.04227
G1 X56.105 Y104.069 E0.04223
G1 X55.981 Y103.158 E0.05096
G1 X55.943 Y102.626 E0.02956
G1 X55.929 Y101.865 E0.04219
G1 X55.995 Y101.106 E0.04223
G1 X56.139 Y100.358 E0.04222
G1 X56.261 Y99.927 E0.02483
G1 X58.345 Y93.312 E0.38442
G1 X58.328 Y85.902 E0.41072
G1 X56.255 Y79.269 E0.38519
G1 X56.067 Y78.531 E0.04221
G1 X55.956 Y77.777 E0.04224
G1 X55.926 Y77.016 E0.04221
G1 X55.944 Y76.574 E0.02452
G1 X55.983 Y76.041 E0.02962
G1 X56.079 Y75.285 E0.04224
G1 X56.253 Y74.544 E0.04219
G1 X56.504 Y73.824 E0.04226
G1 X56.828 Y73.135 E0.0422
G1 X57.224 Y72.484 E0.04224
G1 X57.685 Y71.878 E0.0422
G1 X58.207 Y71.323 E0.04223
G1 X58.418 Y71.141 E0.01544
G0 F1620 X58.785 Y70.826
G0 F3600 X58.628 Y71.532
G1 F1800 E0.02683
G1 X59.199 Y71.065 E0.04089
G1 X59.818 Y70.662 E0.04094
G1 X60.477 Y70.329 E0.04093
G1 X61.168 Y70.068 E0.04094
G1 X61.883 Y69.884 E0.04092
G1 X62.614 Y69.778 E0.04094
G1 X63.17 Y69.751 E0.03085
G1 X63.673 Y69.747 E0.02788
G1 X64.41 Y69.781 E0.04089
G1 X65.14 Y69.895 E0.04095
G1 X65.853 Y70.087 E0.04093
G1 X66.541 Y70.355 E0.04093
G1 X67.196 Y70.695 E0.04091
G1 X67.811 Y71.105 E0.04097
G1 X68.377 Y71.578 E0.04088
G1 X68.655 Y71.852 E0.02164
G1 X68.854 Y72.06 E0.01596
G1 X69.335 Y72.621 E0.04096
G1 X69.752 Y73.23 E0.04091
G1 X70.174 Y74.042 E0.05072
G1 X70.241 Y74.196 E0.00931
G1 X70.309 Y74.041 E0.00938
G1 X70.641 Y73.381 E0.04095
G1 X71.043 Y72.762 E0.04091
G1 X71.629 Y72.06 E0.05069
G1 X71.828 Y71.852 E0.01596
G1 X72.367 Y71.347 E0.04094
G1 X72.957 Y70.903 E0.04093
G1 X73.591 Y70.526 E0.04088
G1 X74.263 Y70.219 E0.04095
G1 X74.964 Y69.987 E0.04093
G1 X75.686 Y69.832 E0.04093
G1 X76.42 Y69.755 E0.04091
G1 X76.797 Y69.747 E0.0209
G1 X77.301 Y69.75 E0.02794
G1 X78.038 Y69.794 E0.04092
G1 X78.766 Y69.918 E0.04093
G1 X79.476 Y70.12 E0.04092
G1 X80.16 Y70.397 E0.0409
G1 X80.81 Y70.747 E0.04092
G1 X81.419 Y71.165 E0.04094
G1 X81.979 Y71.646 E0.04092
G1 X82.484 Y72.185 E0.04094
G1 X82.927 Y72.776 E0.04094
G1 X83.304 Y73.411 E0.04093
G1 X83.61 Y74.083 E0.04093
G1 X83.842 Y74.784 E0.04093
G1 X83.996 Y75.506 E0.04092
G1 X84.064 Y76.098 E0.03303
G1 X84.101 Y76.631 E0.02961
G1 X84.112 Y77.369 E0.04091
G1 X84.043 Y78.104 E0.04092
G1 X83.802 Y79.152 E0.0596
G1 X81.697 Y85.836 E0.38842
G1 X81.715 Y93.382 E0.41826
G1 X83.806 Y100.074 E0.38861
G1 X83.988 Y100.789 E0.04089
G1 X84.092 Y101.52 E0.04093
G1 X84.099 Y102.606 E0.0602
G1 X84.06 Y103.139 E0.02962
G1 X83.966 Y103.871 E0.04091
G1 X83.794 Y104.589 E0.04092
G1 X83.545 Y105.284 E0.04092
G1 X83.222 Y105.948 E0.04093
G1 X82.83 Y106.574 E0.04094
G1 X82.372 Y107.153 E0.04092
G1 X81.854 Y107.68 E0.04096
G1 X81.283 Y108.147 E0.04089
G1 X80.664 Y108.55 E0.04094
G1 X80.005 Y108.883 E0.04093
G1 X79.314 Y109.144 E0.04094
G1 X78.599 Y109.328 E0.04092
G1 X77.868 Y109.434 E0.04094
G1 X77.312 Y109.461 E0.03085
G1 X76.809 Y109.465 E0.02788
G1 X76.072 Y109.431 E0.04089
G1 X75.342 Y109.317 E0.04095
G1 X74.629 Y109.125 E0.04093
G1 X73.941 Y108.857 E0.04093
G1 X73.286 Y108.517 E0.04091
G1 X72.671 Y108.107 E0.04097
G1 X72.105 Y107.634 E0.04088
G1 X71.827 Y107.359 E0.02167
G1 X71.629 Y107.152 E0.01588
G1 X71.148 Y106.592 E0.04092
G1 X70.73 Y105.983 E0.04094
G1 X70.309 Y105.172 E0.05065
G1 X70.241 Y105.017 E0.00938
G1 X70.173 Y105.172 E0.00938
G1 X69.84 Y105.831 E0.04093
G1 X69.439 Y106.451 E0.04093
G1 X68.853 Y107.152 E0.05064
G1 X68.654 Y107.36 E0.01596
G1 X68.115 Y107.865 E0.04094
G1 X67.525 Y108.309 E0.04093
G1 X66.891 Y108.686 E0.04088
G1 X66.219 Y108.993 E0.04095
G1 X65.518 Y109.225 E0.04093
G1 X64.796 Y109.38 E0.04093
G1 X64.062 Y109.457 E0.04091
G1 X63.672 Y109.465 E0.02162
G1 X63.169 Y109.461 E0.02788
G1 X62.432 Y109.415 E0.04093
G1 X61.704 Y109.29 E0.04094
G1 X60.994 Y109.087 E0.04093
G1 X60.311 Y108.808 E0.04089
G1 X59.661 Y108.457 E0.04095
G1 X59.053 Y108.038 E0.04093
G1 X58.494 Y107.555 E0.04095
G1 X57.991 Y107.015 E0.0409
G1 X57.548 Y106.424 E0.04094
G1 X57.173 Y105.788 E0.04092
G1 X56.868 Y105.116 E0.0409
G1 X56.638 Y104.414 E0.04095
G1 X56.484 Y103.692 E0.04092
G1 X56.42 Y103.127 E0.03152
G1 X56.382 Y102.595 E0.02956
G1 X56.37 Y101.857 E0.04091
G1 X56.437 Y101.121 E0.04096
G1 X56.68 Y100.059 E0.06039
G1 X58.785 Y93.377 E0.38831
G1 X58.767 Y85.835 E0.41804
G1 X56.675 Y79.138 E0.38889
G1 X56.494 Y78.422 E0.04093
G1 X56.39 Y77.691 E0.04093
G1 X56.383 Y76.606 E0.06014
G1 X56.422 Y76.073 E0.02962
G1 X56.516 Y75.341 E0.04091
G1 X56.688 Y74.623 E0.04092
G1 X56.937 Y73.928 E0.04092
G1 X57.26 Y73.264 E0.04093
G1 X57.652 Y72.638 E0.04094
G1 X58.11 Y72.059 E0.04092
G1 X58.289 Y71.877 E0.01415
G0 F1620 X58.628 Y71.532
G0 F3600 X59.047 Y71.749
G1 F1800 E0.02683
G1 X59.612 Y71.312 E0.03959
G1 X60.222 Y70.941 E0.03957
G1 X60.87 Y70.641 E0.03958
G1 X61.548 Y70.415 E0.03961
G1 X62.246 Y70.266 E0.03956
G1 X63.173 Y70.191 E0.05155
G1 X63.676 Y70.187 E0.02788
