;FLAVOR:Marlin
;TIME:494
;Filament used: 0.415096m
;Layer height: 0.2
;Generated with Cura_SteamEngine 3.5.0
M140 S60
M105
M190 S60
M104 S205
M105
M109 S205
M82 ;absolute extrusion mode
G28 ;Home
G1 Z15.0 F6000 ;Move the platform down 15mm
;Prime the extruder
G92 E0
G1 F200 E3
G92 E0
G92 E0
G1 F2400 E-1
;LAYER_COUNT:5
;LAYER:0
M107
M204 S5000
M205 X30 Y30
G0 F3600 X33.853 Y45.21 Z0.25
M204 S500
M205 X20 Y20
;TYPE:SKIRT
G1 F2400 E0
G1 F1800 X45.844 Y33.096 E0.8231
G1 X46.249 Y32.744 E0.84901
G1 X46.873 Y32.37 E0.88414
G1 X57.697 Y27.275 E1.46184
G1 X58.198 Y27.083 E1.48775
G1 X58.915 Y26.945 E1.523
G1 X64.885 Y26.415 E1.81243
G1 X65.422 Y26.408 E1.83836
G1 X66.156 Y26.529 E1.87428
G1 X67.488 Y26.893 E1.94096
G1 X69.014 Y27.3 E2.01723
G1 X69.521 Y27.477 E2.04316
G1 X69.902 Y27.669 E2.06376
G1 X72.749 Y29.329 E2.22291
G1 X77.602 Y31.876 E2.48757
G1 X82.576 Y34.137 E2.75141
G1 X85.031 Y35.131 E2.87931
G1 X90.226 Y36.979 E3.14558
G1 X95.443 Y38.508 E3.4081
G1 X100.824 Y39.763 E3.67492
G1 X103.402 Y40.246 E3.80158
G1 X108.849 Y41.035 E4.06736
G1 X114.27 Y41.509 E4.33013
G1 X119.71 Y41.677 E4.59295
G1 X125.168 Y41.535 E4.85661
G1 X130.61 Y41.086 E5.12029
G1 X136.003 Y40.331 E5.38326
G1 X141.374 Y39.267 E5.64766
G1 X143.968 Y38.638 E5.77655
G1 X146.61 Y37.918 E5.90879
G1 X151.819 Y36.256 E6.17282
G1 X156.923 Y34.305 E6.43668
G1 X161.876 Y32.082 E6.69885
G1 X166.747 Y29.555 E6.96383
G1 X170.005 Y27.666 E7.14569
G1 X170.488 Y27.432 E7.17161
G1 X170.874 Y27.304 E7.19125
G1 X173.752 Y26.526 E7.33521
G1 X174.279 Y26.425 E7.36113
G1 X175.01 Y26.415 E7.39643
G1 X180.911 Y26.934 E7.68249
G1 X181.441 Y27.021 E7.70842
G1 X182.132 Y27.264 E7.74379
G1 X193.082 Y32.417 E8.32819
G1 X193.55 Y32.681 E8.35414
G1 X194.109 Y33.142 E8.38912
G1 X206.82 Y45.971 E9.26122
G1 X207.169 Y46.38 E9.28718
G1 X207.53 Y46.99 E9.32141
G1 X212.634 Y57.969 E9.90607
G1 X212.823 Y58.472 E9.93202
G1 X212.956 Y59.174 E9.96652
G1 X213.485 Y65.177 E10.25753
G1 X213.492 Y65.714 E10.28346
G1 X213.383 Y66.403 E10.31715
G1 X212.616 Y69.35 E10.4642
G1 X212.442 Y69.858 E10.49013
G1 X212.251 Y70.242 E10.51084
G1 X210.539 Y73.216 E10.67655
G1 X208.031 Y78.064 E10.94013
G1 X205.791 Y83.071 E11.205
G1 X204.786 Y85.596 E11.33624
G1 X203.863 Y88.128 E11.46638
G1 X202.213 Y93.321 E11.7295
G1 X200.844 Y98.655 E11.99543
G1 X200.286 Y101.288 E12.1254
G1 X199.806 Y103.93 E12.25507
G1 X199.05 Y109.371 E12.52033
G1 X198.608 Y114.796 E12.78317
G1 X198.472 Y120.253 E13.04677
G1 X198.645 Y125.693 E13.3096
G1 X199.126 Y131.132 E13.57327
G1 X199.913 Y136.52 E13.83621
G1 X201.009 Y141.891 E14.10092
G1 X201.658 Y144.5 E14.23075
G1 X202.381 Y147.094 E14.36079
G1 X204.093 Y152.352 E14.62781
G1 X205.023 Y154.845 E14.7563
G1 X207.164 Y159.913 E15.02198
G1 X209.551 Y164.783 E15.28388
G1 X212.363 Y169.784 E15.56093
G1 X212.59 Y170.27 E15.58683
G1 X212.714 Y170.662 E15.60669
G1 X213.478 Y173.662 E15.75618
G1 X213.572 Y174.191 E15.78213
G1 X213.577 Y174.864 E15.81463
G1 X213.064 Y180.798 E16.10225
G1 X212.978 Y181.328 E16.12817
G1 X212.744 Y182.002 E16.16263
G1 X207.821 Y192.648 E16.72902
G1 X207.586 Y193.077 E16.75264
G1 X207.299 Y193.526 E16.77838
G1 X206.821 Y194.123 E16.81531
G1 X194.148 Y206.909 E17.68464
G1 X193.743 Y207.262 E17.71058
G1 X193.121 Y207.634 E17.74558
G1 X182.308 Y212.723 E18.32267
G1 X181.807 Y212.915 E18.34858
G1 X181.091 Y213.053 E18.38379
G1 X175.115 Y213.585 E18.67351
G1 X174.578 Y213.592 E18.69944
G1 X173.854 Y213.474 E18.73487
G1 X170.984 Y212.699 E18.87842
G1 X170.477 Y212.521 E18.90437
G1 X170.137 Y212.35 E18.92275
G1 X166.068 Y210.03 E19.14893
G1 X161.183 Y207.56 E19.41327
G1 X156.157 Y205.367 E19.67807
G1 X153.605 Y204.378 E19.81023
G1 X151.095 Y203.49 E19.9388
G1 X145.871 Y201.883 E20.20273
G1 X140.541 Y200.569 E20.46782
G1 X137.899 Y200.034 E20.59799
G1 X135.223 Y199.573 E20.72912
G1 X129.815 Y198.873 E20.99245
G1 X124.368 Y198.48 E21.25616
G1 X118.909 Y198.395 E21.51981
G1 X113.472 Y198.619 E21.78258
G1 X108.038 Y199.151 E22.04624
G1 X102.621 Y199.993 E22.31097
G1 X100.009 Y200.513 E22.43958
G1 X97.363 Y201.117 E22.57064
G1 X92.057 Y202.571 E22.83631
G1 X86.873 Y204.312 E23.10038
G1 X84.396 Y205.26 E23.22845
G1 X79.357 Y207.444 E23.49366
G1 X74.48 Y209.892 E23.75717
G1 X70.176 Y212.347 E23.99644
G1 X69.691 Y212.577 E24.02236
G1 X69.329 Y212.696 E24.04076
G1 X66.446 Y213.475 E24.18497
G1 X65.918 Y213.576 E24.21093
G1 X65.187 Y213.586 E24.24624
G1 X59.289 Y213.066 E24.53215
G1 X58.759 Y212.979 E24.55809
G1 X58.074 Y212.739 E24.59314
G1 X47.168 Y207.629 E25.17473
G1 X46.7 Y207.366 E25.20065
G1 X46.136 Y206.901 E25.23595
G1 X33.322 Y193.968 E26.11511
G1 X32.973 Y193.559 E26.14108
G1 X32.609 Y192.941 E26.17571
G1 X27.552 Y181.996 E26.75793
G1 X27.364 Y181.493 E26.78386
G1 X27.232 Y180.792 E26.81831
G1 X26.757 Y175.277 E27.08561
G1 X26.744 Y174.957 E27.10107
G1 X26.746 Y174.268 E27.13435
G1 X26.788 Y173.732 E27.16031
G1 X26.867 Y173.35 E27.17915
G1 X27.591 Y170.628 E27.31516
G1 X27.768 Y170.121 E27.34109
G1 X27.93 Y169.793 E27.35876
G1 X30.686 Y164.867 E27.63133
G1 X33.067 Y159.973 E27.89414
G1 X35.192 Y154.894 E28.16001
G1 X36.116 Y152.39 E28.2889
G1 X37.791 Y147.186 E28.55289
G1 X39.173 Y141.883 E28.81752
G1 X39.741 Y139.257 E28.94726
G1 X40.235 Y136.591 E29.0782
G1 X41.009 Y131.172 E29.34253
G1 X41.473 Y125.747 E29.60546
G1 X41.629 Y120.291 E29.86903
G1 X41.477 Y114.831 E30.1328
G1 X41.018 Y109.408 E30.39561
G1 X40.251 Y104.011 E30.65885
G1 X39.173 Y98.632 E30.92376
G1 X38.547 Y96.067 E31.05126
G1 X37.015 Y90.791 E31.31656
G1 X35.196 Y85.633 E31.58067
G1 X33.094 Y80.601 E31.84401
G1 X30.72 Y75.713 E32.10642
G1 X27.635 Y70.209 E32.41111
G1 X27.408 Y69.722 E32.43705
G1 X27.295 Y69.372 E32.45481
G1 X26.521 Y66.461 E32.60027
G1 X26.422 Y65.933 E32.62621
G1 X26.414 Y65.22 E32.66064
G1 X26.937 Y59.201 E32.95239
G1 X27.023 Y58.671 E32.97832
G1 X27.262 Y57.988 E33.01326
G1 X32.413 Y46.949 E33.60151
G1 X32.675 Y46.48 E33.62745
G1 X33.149 Y45.905 E33.66344
G1 X33.853 Y45.21 E33.71121
M204 S5000
M205 X30 Y30
G0 F3600 X34.207 Y45.507
M204 S500
M205 X20 Y20
G1 F1800 X46.171 Y33.42 E34.53246
G1 X46.551 Y33.093 E34.55667
G1 X47.068 Y32.786 E34.5857
G1 X57.892 Y27.691 E35.1634
G1 X58.362 Y27.514 E35.18765
G1 X58.955 Y27.403 E35.21679
G1 X64.925 Y26.873 E35.50621
G1 X65.427 Y26.869 E35.53045
G1 X66.034 Y26.972 E35.56018
G1 X67.37 Y27.337 E35.62706
G1 X68.896 Y27.744 E35.70333
G1 X69.369 Y27.912 E35.72757
G1 X69.67 Y28.067 E35.74391
G1 X72.518 Y29.727 E35.9031
G1 X77.383 Y32.28 E36.16841
G1 X82.401 Y34.562 E36.43461
G1 X84.871 Y35.562 E36.56329
G1 X90.082 Y37.416 E36.83038
G1 X95.337 Y38.956 E37.09481
G1 X100.725 Y40.212 E37.36197
G1 X103.346 Y40.703 E37.49074
G1 X108.778 Y41.49 E37.75579
G1 X114.234 Y41.967 E38.02026
G1 X119.725 Y42.136 E38.28554
G1 X125.201 Y41.994 E38.55007
G1 X130.639 Y41.545 E38.81356
G1 X136.086 Y40.783 E39.07915
G1 X141.477 Y39.715 E39.34454
G1 X144.094 Y39.08 E39.47458
G1 X146.732 Y38.361 E39.60662
G1 X151.977 Y36.688 E39.87247
G1 X157.084 Y34.736 E40.13648
G1 X162.099 Y32.485 E40.40193
G1 X166.959 Y29.964 E40.66631
G1 X170.236 Y28.064 E40.84923
G1 X170.688 Y27.848 E40.87343
G1 X170.994 Y27.748 E40.88897
G1 X173.872 Y26.97 E41.03294
G1 X174.365 Y26.878 E41.05715
G1 X174.97 Y26.873 E41.08637
G1 X180.871 Y27.392 E41.37243
G1 X181.366 Y27.476 E41.39667
G1 X181.936 Y27.68 E41.42591
G1 X192.886 Y32.833 E42.0103
G1 X193.322 Y33.082 E42.03455
G1 X193.783 Y33.466 E42.06352
G1 X206.494 Y46.295 E42.93562
G1 X206.817 Y46.678 E42.95981
G1 X207.112 Y47.184 E42.98809
G1 X212.216 Y58.163 E43.57275
G1 X212.391 Y58.633 E43.59697
G1 X212.498 Y59.214 E43.6255
G1 X213.027 Y65.217 E43.91651
G1 X213.031 Y65.719 E43.94075
G1 X212.937 Y66.287 E43.96855
G1 X212.17 Y69.234 E44.1156
G1 X212.006 Y69.708 E44.13982
G1 X211.852 Y70.012 E44.15628
G1 X210.143 Y72.981 E44.3217
G1 X207.614 Y77.87 E44.58751
G1 X205.372 Y82.879 E44.85252
G1 X204.351 Y85.444 E44.98583
G1 X203.431 Y87.969 E45.1156
G1 X201.767 Y93.208 E45.38105
G1 X200.398 Y98.541 E45.64692
G1 X199.831 Y101.214 E45.77887
G1 X199.351 Y103.86 E45.90873
G1 X198.594 Y109.305 E46.1742
G1 X198.148 Y114.781 E46.43951
G1 X198.012 Y120.256 E46.70397
G1 X198.185 Y125.713 E46.96762
G1 X198.67 Y131.186 E47.23295
G1 X199.461 Y136.608 E47.49755
G1 X200.557 Y141.977 E47.76216
G1 X201.215 Y144.623 E47.89382
G1 X201.943 Y147.235 E48.02476
G1 X203.655 Y152.494 E48.29184
G1 X204.596 Y155.018 E48.42191
G1 X206.741 Y160.096 E48.68811
G1 X209.144 Y164.998 E48.95174
G1 X211.962 Y170.009 E49.22935
G1 X212.172 Y170.465 E49.2536
G1 X212.269 Y170.776 E49.26933
G1 X213.033 Y173.776 E49.41882
G1 X213.117 Y174.27 E49.44302
G1 X213.118 Y174.824 E49.46977
G1 X212.605 Y180.758 E49.75739
G1 X212.522 Y181.253 E49.78163
G1 X212.326 Y181.809 E49.8101
G1 X207.403 Y192.455 E50.37649
G1 X207.198 Y192.83 E50.39713
G1 X206.911 Y193.279 E50.42286
G1 X206.494 Y193.799 E50.45505
G1 X193.821 Y206.585 E51.32438
G1 X193.441 Y206.912 E51.34859
G1 X192.925 Y207.218 E51.37756
G1 X182.112 Y212.307 E51.95465
G1 X181.643 Y212.484 E51.97886
G1 X181.05 Y212.595 E52.00799
G1 X175.074 Y213.127 E52.29771
G1 X174.573 Y213.131 E52.3219
G1 X173.974 Y213.03 E52.35124
G1 X171.104 Y212.255 E52.49479
G1 X170.631 Y212.086 E52.51905
G1 X170.365 Y211.95 E52.53347
G1 X166.282 Y209.622 E52.76044
G1 X161.383 Y207.145 E53.02553
G1 X156.333 Y204.941 E53.2916
G1 X153.789 Y203.955 E53.42336
G1 X151.246 Y203.056 E53.5536
G1 X145.976 Y201.435 E53.81986
G1 X140.647 Y200.121 E54.0849
G1 X137.965 Y199.578 E54.21704
G1 X135.312 Y199.121 E54.34704
G1 X129.854 Y198.415 E54.6128
G1 X124.39 Y198.021 E54.87734
G1 X118.897 Y197.935 E55.14262
G1 X113.443 Y198.159 E55.40622
G1 X107.992 Y198.693 E55.6707
G1 X102.532 Y199.542 E55.93753
G1 X99.92 Y200.062 E56.06614
G1 X97.233 Y200.676 E56.19924
G1 X91.934 Y202.127 E56.46455
G1 X86.721 Y203.878 E56.7301
G1 X84.216 Y204.837 E56.85963
G1 X79.159 Y207.028 E57.12576
G1 X74.258 Y209.488 E57.39057
G1 X69.948 Y211.947 E57.63019
G1 X69.494 Y212.16 E57.65441
G1 X69.209 Y212.252 E57.66887
G1 X66.326 Y213.031 E57.81308
G1 X65.833 Y213.123 E57.8373
G1 X65.227 Y213.128 E57.86656
G1 X59.329 Y212.608 E58.15248
G1 X58.835 Y212.524 E58.17668
G1 X58.27 Y212.322 E58.20565
G1 X47.364 Y207.212 E58.78724
G1 X46.928 Y206.964 E58.81146
G1 X46.462 Y206.577 E58.84071
G1 X33.648 Y193.644 E59.71988
G1 X33.325 Y193.261 E59.74407
G1 X33.026 Y192.748 E59.77274
G1 X27.969 Y181.803 E60.35496
G1 X27.796 Y181.333 E60.37914
G1 X27.691 Y180.752 E60.40766
G1 X27.216 Y175.237 E60.67496
G1 X27.204 Y174.958 E60.68844
G1 X27.206 Y174.269 E60.72172
G1 X27.247 Y173.769 E60.74594
G1 X27.312 Y173.468 E60.76081
G1 X28.036 Y170.746 E60.89683
G1 X28.203 Y170.273 E60.92105
G1 X28.331 Y170.018 E60.93483
G1 X31.091 Y165.085 E61.20779
G1 X33.49 Y160.154 E61.47259
G1 X35.628 Y155.045 E61.74003
G1 X36.547 Y152.553 E61.86829
G1 X38.229 Y147.328 E62.13336
G1 X39.618 Y142.002 E62.39915
G1 X40.201 Y139.303 E62.53249
G1 X40.69 Y136.669 E62.66186
G1 X41.464 Y131.24 E62.92667
G1 X41.933 Y125.765 E63.19203
G1 X42.089 Y120.291 E63.45647
G1 X41.936 Y114.816 E63.72096
G1 X41.475 Y109.358 E63.98546
G1 X40.705 Y103.936 E64.24991
G1 X39.621 Y98.527 E64.51631
G1 X38.991 Y95.947 E64.64455
G1 X37.454 Y90.65 E64.91089
G1 X35.628 Y85.473 E65.17598
G1 X33.517 Y80.421 E65.44038
G1 X31.123 Y75.492 E65.70499
G1 X28.036 Y69.984 E66.0099
G1 X27.827 Y69.529 E66.03408
G1 X27.74 Y69.253 E66.04805
G1 X26.966 Y66.342 E66.19351
G1 X26.876 Y65.849 E66.21771
G1 X26.872 Y65.26 E66.24615
G1 X27.395 Y59.241 E66.5379
G1 X27.478 Y58.747 E66.56209
G1 X27.678 Y58.182 E66.59103
G1 X32.829 Y47.143 E67.17928
G1 X33.077 Y46.707 E67.2035
G1 X33.472 Y46.232 E67.23333
G1 X34.207 Y45.507 E67.28318
M204 S5000
M205 X30 Y30
G0 F3600 X34.53 Y45.835
M204 S500
M205 X20 Y20
G1 F1800 X46.498 Y33.744 E68.10471
G1 X46.851 Y33.444 E68.12708
G1 X47.264 Y33.202 E68.1502
G1 X58.088 Y28.107 E68.72789
G1 X58.523 Y27.947 E68.75028
G1 X58.996 Y27.862 E68.77348
G1 X64.966 Y27.332 E69.06291
G1 X65.43 Y27.33 E69.08531
G1 X65.913 Y27.416 E69.109
G1 X67.267 Y27.786 E69.17678
G1 X68.777 Y28.189 E69.25225
G1 X69.213 Y28.346 E69.27463
G1 X69.439 Y28.464 E69.28694
G1 X72.305 Y30.135 E69.44715
G1 X77.191 Y32.699 E69.7136
G1 X82.224 Y34.987 E69.98058
G1 X84.708 Y35.993 E70.10999
G1 X84.707 Y35.993 E70.11004
G1 X89.933 Y37.852 E70.37789
G1 X95.211 Y39.399 E70.64349
G1 X100.63 Y40.662 E70.91218
G1 X103.267 Y41.156 E71.04174
G1 X108.726 Y41.947 E71.3081
G1 X114.213 Y42.427 E71.57408
G1 X119.723 Y42.597 E71.84028
G1 X125.215 Y42.454 E72.10558
G1 X130.706 Y42.001 E72.37164
G1 X136.149 Y41.239 E72.63704
G1 X141.585 Y40.163 E72.90464
G1 X144.212 Y39.525 E73.03518
G1 X146.855 Y38.805 E73.16746
G1 X152.12 Y37.125 E73.43434
G1 X157.275 Y35.155 E73.70083
G1 X162.293 Y32.902 E73.96645
G1 X167.188 Y30.364 E74.23271
G1 X170.467 Y28.462 E74.41576
G1 X170.886 Y28.265 E74.43812
G1 X171.114 Y28.192 E74.44968
G1 X173.992 Y27.414 E74.59364
G1 X174.448 Y27.332 E74.61602
G1 X174.93 Y27.331 E74.63929
G1 X180.831 Y27.85 E74.92535
G1 X181.287 Y27.931 E74.94771
G1 X181.74 Y28.096 E74.97099
G1 X192.69 Y33.249 E75.55539
G1 X193.091 Y33.482 E75.57779
G1 X193.456 Y33.79 E75.60085
G1 X206.167 Y46.619 E76.47294
G1 X206.464 Y46.975 E76.49533
G1 X206.695 Y47.378 E76.51776
G1 X211.799 Y58.357 E77.10242
G1 X211.958 Y58.793 E77.12483
G1 X212.04 Y59.255 E77.14749
G1 X212.569 Y65.258 E77.4385
G1 X212.569 Y65.721 E77.46086
G1 X212.492 Y66.172 E77.48295
G1 X211.725 Y69.119 E77.63
G1 X211.57 Y69.555 E77.65234
G1 X211.453 Y69.783 E77.66472
G1 X209.737 Y72.764 E77.83082
G1 X207.2 Y77.669 E78.09749
G1 X204.945 Y82.708 E78.36407
G1 X203.92 Y85.282 E78.49786
G1 X203.004 Y87.797 E78.62711
G1 X201.326 Y93.079 E78.89474
G1 X199.946 Y98.453 E79.16267
G1 X199.387 Y101.089 E79.29279
G1 X198.893 Y103.81 E79.42633
G1 X198.136 Y109.257 E79.6919
G1 X197.688 Y114.75 E79.95803
G1 X197.552 Y120.242 E80.22332
G1 X197.727 Y125.751 E80.48948
G1 X198.213 Y131.238 E80.75548
G1 X199.007 Y136.68 E81.02106
G1 X200.114 Y142.107 E81.28852
G1 X200.765 Y144.721 E81.4186
G1 X201.502 Y147.366 E81.5512
G1 X203.223 Y152.653 E81.81969
G1 X204.17 Y155.191 E81.9505
G1 X206.318 Y160.278 E82.21715
G1 X208.738 Y165.214 E82.48261
G1 X211.561 Y170.235 E82.76077
G1 X211.752 Y170.657 E82.78314
G1 X211.823 Y170.889 E82.79486
G1 X212.587 Y173.889 E82.94435
G1 X212.662 Y174.346 E82.96671
G1 X212.66 Y174.785 E82.98791
G1 X212.147 Y180.719 E83.27553
G1 X212.067 Y181.175 E83.29789
G1 X211.909 Y181.616 E83.32051
G1 X206.986 Y192.262 E83.8869
G1 X206.811 Y192.582 E83.90452
G1 X206.524 Y193.031 E83.93025
G1 X206.168 Y193.476 E83.95777
G1 X193.495 Y206.262 E84.8271
G1 X193.141 Y206.561 E84.84947
G1 X192.729 Y206.802 E84.87252
G1 X181.916 Y211.891 E85.44962
G1 X181.482 Y212.051 E85.47195
G1 X181.01 Y212.136 E85.49511
G1 X175.034 Y212.668 E85.78483
G1 X174.57 Y212.67 E85.80724
G1 X174.094 Y212.586 E85.83058
G1 X171.224 Y211.811 E85.97413
G1 X170.592 Y211.551 E86.00713
G1 X166.495 Y209.215 E86.23488
G1 X161.576 Y206.728 E86.50105
G1 X156.496 Y204.511 E86.7687
G1 X153.943 Y203.522 E86.90091
G1 X151.389 Y202.618 E87.03174
G1 X146.114 Y200.996 E87.29824
G1 X140.754 Y199.674 E87.56483
G1 X138.03 Y199.123 E87.69903
G1 X135.378 Y198.666 E87.82898
G1 X129.894 Y197.956 E88.09601
G1 X124.413 Y197.561 E88.36137
G1 X118.903 Y197.475 E88.62748
G1 X113.397 Y197.701 E88.89359
G1 X107.929 Y198.236 E89.1589
G1 X102.47 Y199.085 E89.42568
G1 X99.798 Y199.617 E89.55724
G1 X97.127 Y200.228 E89.68955
G1 X91.801 Y201.686 E89.95621
G1 X86.563 Y203.446 E90.22304
G1 X84.047 Y204.409 E90.35314
G1 X78.968 Y206.61 E90.62044
G1 X74.044 Y209.081 E90.88648
G1 X69.72 Y211.548 E91.12687
G1 X69.089 Y211.808 E91.15983
G1 X66.206 Y212.587 E91.30404
G1 X65.75 Y212.669 E91.32642
G1 X65.268 Y212.67 E91.34969
G1 X59.37 Y212.15 E91.63561
G1 X58.913 Y212.069 E91.65802
G1 X58.465 Y211.906 E91.68104
G1 X47.559 Y206.796 E92.26263
G1 X47.157 Y206.564 E92.28504
G1 X46.789 Y206.253 E92.30831
G1 X33.975 Y193.32 E93.18747
G1 X33.678 Y192.964 E93.20986
G1 X33.444 Y192.555 E93.23262
G1 X28.387 Y181.61 E93.81483
G1 X28.23 Y181.174 E93.83721
G1 X28.149 Y180.713 E93.85981
G1 X27.674 Y175.198 E94.12712
