;FLAVOR:RepRap
;TIME:1441
;Filament used: 1.1481m
;Layer height: 0.2
;Generated with Cura_SteamEngine 3.5.0
T0
M190 S60
M104 S205
M109 S205
M82 ;absolute extrusion mode
G28 ; Home all axes
M83 ;relative extrusion mode
G1 F3600 E-6.5
;LAYER_COUNT:150
;LAYER:0
M107
M204 T5000
G0 F3600 X81.875 Y82.131 Z0.26
M204 P3000
;TYPE:SKIRT
G1 F3600 E6.5
G1 F1800 X82.268 Y81.756 E0.02755
G1 X82.712 Y81.444 E0.02752
G1 X83.197 Y81.2 E0.02754
G1 X83.713 Y81.029 E0.02757
G1 X84.248 Y80.937 E0.02753
G1 X84.61 Y80.919 E0.01838
G1 X90.309 Y80.92 E0.28904
G1 X90.85 Y80.96 E0.02751
G1 X91.38 Y81.079 E0.02755
G1 X91.886 Y81.275 E0.02752
G1 X92.359 Y81.542 E0.02755
G1 X92.787 Y81.876 E0.02753
G1 X93.161 Y82.27 E0.02755
G1 X93.594 Y82.932 E0.04012
G1 X94.485 Y84.677 E0.09937
G1 X97.175 Y89.489 E0.2796
G1 X100.085 Y94.067 E0.27513
G1 X103.265 Y98.493 E0.27641
G1 X106.691 Y102.736 E0.27659
G1 X110.359 Y106.787 E0.27717
G1 X114.223 Y110.594 E0.27512
G1 X118.345 Y114.223 E0.27854
G1 X120.416 Y115.893 E0.13493
G1 X124.818 Y119.149 E0.2777
G1 X129.372 Y122.135 E0.27619
G1 X134.116 Y124.875 E0.27786
G1 X137.09 Y126.418 E0.16993
G1 X137.553 Y126.702 E0.02755
G1 X137.968 Y127.052 E0.02753
G1 X138.328 Y127.459 E0.02756
G1 X138.624 Y127.914 E0.02753
G1 X138.85 Y128.407 E0.02751
G1 X139.001 Y128.929 E0.02756
G1 X139.081 Y129.693 E0.03896
G1 X139.081 Y135.391 E0.28899
G1 X139.041 Y135.932 E0.02751
G1 X138.922 Y136.462 E0.02755
G1 X138.727 Y136.969 E0.02755
G1 X138.459 Y137.441 E0.02753
G1 X138.125 Y137.869 E0.02753
G1 X137.732 Y138.244 E0.02755
G1 X137.288 Y138.556 E0.02752
G1 X136.803 Y138.8 E0.02754
G1 X136.287 Y138.971 E0.02757
G1 X135.752 Y139.063 E0.02753
G1 X135.391 Y139.081 E0.01833
G1 X84.609 Y139.081 E2.57558
G1 X84.068 Y139.041 E0.02751
G1 X83.538 Y138.922 E0.02755
G1 X83.031 Y138.727 E0.02755
G1 X82.559 Y138.459 E0.02753
G1 X82.131 Y138.125 E0.02753
G1 X81.756 Y137.732 E0.02755
G1 X81.444 Y137.288 E0.02752
G1 X81.2 Y136.803 E0.02754
G1 X81.029 Y136.287 E0.02757
G1 X80.937 Y135.752 E0.02753
G1 X80.919 Y135.391 E0.01833
G1 X80.919 Y84.609 E2.57558
G1 X80.959 Y84.068 E0.02751
G1 X81.078 Y83.538 E0.02755
G1 X81.273 Y83.031 E0.02755
G1 X81.541 Y82.559 E0.02753
G1 X81.875 Y82.131 E0.02753
G0 F3600 X82.329 Y82.321
G1 F1800 X82.716 Y81.992 E0.02576
G1 X83.149 Y81.728 E0.02572
G1 X83.619 Y81.534 E0.02579
G1 X84.113 Y81.417 E0.02575
G1 X84.61 Y81.379 E0.02528
G1 X90.309 Y81.38 E0.28904
G1 X90.815 Y81.42 E0.02574
G1 X91.309 Y81.539 E0.02577
G1 X91.778 Y81.734 E0.02576
G1 X92.211 Y82 E0.02577
G1 X92.596 Y82.33 E0.02572
G1 X92.925 Y82.717 E0.02576
G1 X93.185 Y83.141 E0.02523
G1 X94.097 Y84.926 E0.10166
G1 X96.773 Y89.714 E0.27819
G1 X99.705 Y94.328 E0.27727
G1 X102.899 Y98.772 E0.27757
G1 X106.351 Y103.046 E0.27864
G1 X110.011 Y107.089 E0.2766
G1 X113.922 Y110.943 E0.27849
G1 X118.04 Y114.568 E0.27825
G1 X120.129 Y116.253 E0.13612
G1 X124.56 Y119.53 E0.27952
G1 X129.131 Y122.527 E0.27722
G1 X133.888 Y125.275 E0.27863
G1 X136.878 Y126.826 E0.17084
G1 X137.31 Y127.095 E0.02581
G1 X137.693 Y127.427 E0.02571
G1 X138.02 Y127.816 E0.02577
G1 X138.282 Y128.252 E0.0258
G1 X138.472 Y128.723 E0.02576
G1 X138.586 Y129.218 E0.02576
G1 X138.621 Y129.693 E0.02416
G1 X138.621 Y135.391 E0.28899
G1 X138.581 Y135.897 E0.02574
G1 X138.462 Y136.391 E0.02577
G1 X138.267 Y136.86 E0.02576
G1 X138.002 Y137.293 E0.02575
G1 X137.671 Y137.679 E0.02579
G1 X137.284 Y138.008 E0.02576
G1 X136.851 Y138.272 E0.02572
G1 X136.381 Y138.466 E0.02579
G1 X135.887 Y138.583 E0.02575
G1 X135.391 Y138.621 E0.02523
G1 X84.609 Y138.621 E2.57558
G1 X84.103 Y138.581 E0.02574
G1 X83.609 Y138.462 E0.02577
G1 X83.14 Y138.267 E0.02576
G1 X82.707 Y138.002 E0.02575
G1 X82.321 Y137.671 E0.02579
G1 X81.992 Y137.284 E0.02576
G1 X81.728 Y136.851 E0.02572
G1 X81.534 Y136.381 E0.02579
G1 X81.417 Y135.887 E0.02575
G1 X81.379 Y135.391 E0.02523
G1 X81.379 Y84.609 E2.57558
G1 X81.419 Y84.103 E0.02574
G1 X81.538 Y83.609 E0.02577
G1 X81.733 Y83.14 E0.02576
G1 X81.998 Y82.707 E0.02575
G1 X82.329 Y82.321 E0.02579
G1 F3600 E-6.5
G1 F300 Z0.51
G0 F3600 X89.624 Y130.376 Z0.51
;TYPE:WALL-INNER
G1 F300 Z0.26
G1 F3600 E6.5
G1 F1800 X134.71 Y130.376 E2.28669
G1 X134.71 Y134.71 E0.21981
G1 X85.29 Y134.71 E2.5065
G1 X85.29 Y85.29 E2.5065
G1 X89.624 Y85.29 E0.21981
G1 X89.624 Y130.376 E2.28669
G0 F3600 X90.084 Y129.916
;TYPE:WALL-OUTER
G1 F1800 X135.17 Y129.916 E2.28669
G1 X135.17 Y135.17 E0.26647
G1 X84.83 Y135.17 E2.55316
G1 X84.83 Y84.83 E2.55316
G1 X90.084 Y84.83 E0.26647
G1 X90.084 Y129.916 E2.28669
G0 F3600 X90.284 Y129.916
G1 F3600 E-6.5
G1 F300 Z0.51
G0 F3600 X89.174 Y130.826 Z0.51
;TYPE:SKIN
G1 F300 Z0.26
G1 F3600 E6.5
G1 F1800 X134.26 Y130.826 E2.28669
G1 X134.26 Y134.26 E0.17417
G1 X85.74 Y134.26 E2.46086
G1 X85.74 Y85.74 E2.46086
G1 X89.174 Y85.74 E0.17417
G1 X89.174 Y130.826 E2.28669
G1 F3600 E-6.5
G1 F300 Z0.51
G0 F3600 X86.559 Y134.049 Z0.51
G1 F300 Z0.26
G1 F3600 E6.5
G1 F1800 X85.949 Y133.438 E0.04379
G0 F3600 X85.949 Y132.788
G1 F1800 X87.21 Y134.049 E0.09045
G0 F3600 X87.86 Y134.049
G1 F1800 X85.949 Y132.137 E0.13711
G0 F3600 X85.949 Y131.487
G1 F1800 X88.511 Y134.049 E0.18376
G0 F3600 X89.161 Y134.049
G1 F1800 X85.949 Y130.836 E0.23042
G0 F3600 X85.949 Y130.186
G1 F1800 X89.812 Y134.049 E0.27708
G0 F3600 X90.462 Y134.049
G1 F1800 X85.949 Y129.535 E0.32374
G0 F3600 X85.949 Y128.885
G1 F1800 X91.113 Y134.049 E0.3704
G0 F3600 X91.764 Y134.049
G1 F1800 X85.949 Y128.234 E0.41709
G0 F3600 X85.949 Y127.583
G1 F1800 X88.963 Y130.598 E0.21622
G0 F3600 X89.401 Y131.036
G1 F1800 X92.414 Y134.049 E0.21611
G0 F3600 X93.065 Y134.049
G1 F1800 X90.052 Y131.036 E0.21611
G0 F3600 X90.702 Y131.036
G1 F1800 X93.715 Y134.049 E0.21611
G0 F3600 X94.366 Y134.049
G1 F1800 X91.353 Y131.036 E0.21611
G0 F3600 X92.003 Y131.036
G1 F1800 X95.016 Y134.049 E0.21611
G0 F3600 X95.667 Y134.049
G1 F1800 X92.654 Y131.036 E0.21611
G0 F3600 X93.304 Y131.036
G1 F1800 X96.317 Y134.049 E0.21611
G0 F3600 X96.968 Y134.049
G1 F1800 X93.955 Y131.036 E0.21611
G0 F3600 X94.605 Y131.036
G1 F1800 X97.618 Y134.049 E0.21611
G0 F3600 X98.269 Y134.049
G1 F1800 X95.256 Y131.036 E0.21611
G0 F3600 X95.907 Y131.036
G1 F1800 X98.919 Y134.049 E0.21608
G0 F3600 X99.57 Y134.049
G1 F1800 X96.557 Y131.036 E0.21611
G0 F3600 X97.208 Y131.036
G1 F1800 X100.221 Y134.049 E0.21611
G0 F3600 X100.871 Y134.049
G1 F1800 X97.858 Y131.036 E0.21611
G0 F3600 X98.509 Y131.036
G1 F1800 X101.522 Y134.049 E0.21611
G0 F3600 X102.172 Y134.049
G1 F1800 X99.159 Y131.036 E0.21611
G0 F3600 X99.81 Y131.036
G1 F1800 X102.823 Y134.049 E0.21611
G0 F3600 X103.473 Y134.049
G1 F1800 X100.46 Y131.036 E0.21611
G0 F3600 X101.111 Y131.036
G1 F1800 X104.124 Y134.049 E0.21611
G0 F3600 X104.774 Y134.049
G1 F1800 X101.761 Y131.036 E0.21611
G0 F3600 X102.412 Y131.036
G1 F1800 X105.425 Y134.049 E0.21611
G0 F3600 X106.075 Y134.049
G1 F1800 X103.062 Y131.036 E0.21611
G0 F3600 X103.713 Y131.036
G1 F1800 X106.726 Y134.049 E0.21611
G0 F3600 X107.376 Y134.049
G1 F1800 X104.364 Y131.036 E0.21608
G0 F3600 X105.014 Y131.036
G1 F1800 X108.027 Y134.049 E0.21611
G0 F3600 X108.678 Y134.049
G1 F1800 X105.665 Y131.036 E0.21611
G0 F3600 X106.315 Y131.036
G1 F1800 X109.328 Y134.049 E0.21611
G0 F3600 X109.979 Y134.049
G1 F1800 X106.966 Y131.036 E0.21611
G0 F3600 X107.616 Y131.036
G1 F1800 X110.629 Y134.049 E0.21611
G0 F3600 X111.28 Y134.049
G1 F1800 X108.267 Y131.036 E0.21611
G0 F3600 X108.917 Y131.036
G1 F1800 X111.93 Y134.049 E0.21611
G0 F3600 X112.581 Y134.049
G1 F1800 X109.568 Y131.036 E0.21611
G0 F3600 X110.218 Y131.036
G1 F1800 X113.231 Y134.049 E0.21611
G0 F3600 X113.882 Y134.049
G1 F1800 X110.869 Y131.036 E0.21611
G0 F3600 X111.519 Y131.036
G1 F1800 X114.532 Y134.049 E0.21611
G0 F3600 X115.183 Y134.049
G1 F1800 X112.17 Y131.036 E0.21611
G0 F3600 X112.821 Y131.036
G1 F1800 X115.833 Y134.049 E0.21608
G0 F3600 X116.484 Y134.049
G1 F1800 X113.471 Y131.036 E0.21611
G0 F3600 X114.122 Y131.036
G1 F1800 X117.135 Y134.049 E0.21611
G0 F3600 X117.785 Y134.049
G1 F1800 X114.772 Y131.036 E0.21611
G0 F3600 X115.423 Y131.036
G1 F1800 X118.436 Y134.049 E0.21611
G0 F3600 X119.086 Y134.049
G1 F1800 X116.073 Y131.036 E0.21611
G0 F3600 X116.724 Y131.036
G1 F1800 X119.737 Y134.049 E0.21611
G0 F3600 X120.387 Y134.049
G1 F1800 X117.374 Y131.036 E0.21611
G0 F3600 X118.025 Y131.036
G1 F1800 X121.038 Y134.049 E0.21611
G0 F3600 X121.688 Y134.049
G1 F1800 X118.675 Y131.036 E0.21611
G0 F3600 X119.326 Y131.036
G1 F1800 X122.339 Y134.049 E0.21611
G0 F3600 X122.989 Y134.049
G1 F1800 X119.976 Y131.036 E0.21611
G0 F3600 X120.627 Y131.036
G1 F1800 X123.64 Y134.049 E0.21611
G0 F3600 X124.29 Y134.049
G1 F1800 X121.278 Y131.036 E0.21608
G0 F3600 X121.928 Y131.036
G1 F1800 X124.941 Y134.049 E0.21611
G0 F3600 X125.592 Y134.049
G1 F1800 X122.579 Y131.036 E0.21611
G0 F3600 X123.229 Y131.036
G1 F1800 X126.242 Y134.049 E0.21611
G0 F3600 X126.893 Y134.049
G1 F1800 X123.88 Y131.036 E0.21611
G0 F3600 X124.53 Y131.036
G1 F1800 X127.543 Y134.049 E0.21611
G0 F3600 X128.194 Y134.049
G1 F1800 X125.181 Y131.036 E0.21611
G0 F3600 X125.831 Y131.036
G1 F1800 X128.844 Y134.049 E0.21611
G0 F3600 X129.495 Y134.049
G1 F1800 X126.482 Y131.036 E0.21611
G0 F3600 X127.132 Y131.036
G1 F1800 X130.145 Y134.049 E0.21611
G0 F3600 X130.796 Y134.049
G1 F1800 X127.783 Y131.036 E0.21611
G0 F3600 X128.433 Y131.036
G1 F1800 X131.446 Y134.049 E0.21611
G0 F3600 X132.097 Y134.049
G1 F1800 X129.084 Y131.036 E0.21611
G0 F3600 X129.735 Y131.036
G1 F1800 X132.747 Y134.049 E0.21608
G0 F3600 X133.398 Y134.049
G1 F1800 X130.385 Y131.036 E0.21611
G0 F3600 X131.036 Y131.036
G1 F1800 X134.049 Y134.049 E0.21611
G0 F3600 X134.049 Y133.399
G1 F1800 X131.686 Y131.036 E0.16949
G0 F3600 X132.337 Y131.036
G1 F1800 X134.049 Y132.748 E0.1228
G0 F3600 X134.049 Y132.098
G1 F1800 X132.987 Y131.036 E0.07617
G0 F3600 X133.638 Y131.036
G1 F1800 X134.049 Y131.447 E0.02948
G1 F3600 E-6.5
G1 F300 Z0.51
G0 F3600 X88.963 Y129.947 Z0.51
G1 F300 Z0.26
G1 F3600 E6.5
G1 F1800 X85.949 Y126.933 E0.21618
G0 F3600 X85.949 Y126.282
G1 F1800 X88.963 Y129.297 E0.21622
G0 F3600 X88.963 Y128.646
G1 F1800 X85.949 Y125.632 E0.21618
G0 F3600 X85.949 Y124.981
G1 F1800 X88.963 Y127.996 E0.21622
G0 F3600 X88.963 Y127.345
G1 F1800 X85.949 Y124.331 E0.21618
G0 F3600 X85.949 Y123.68
G1 F1800 X88.963 Y126.695 E0.21622
G0 F3600 X88.963 Y126.044
G1 F1800 X85.949 Y123.03 E0.21618
G0 F3600 X85.949 Y122.379
G1 F1800 X88.963 Y125.394 E0.21622
G0 F3600 X88.963 Y124.743
G1 F1800 X85.949 Y121.729 E0.21618
G0 F3600 X85.949 Y121.078
G1 F1800 X88.963 Y124.092 E0.21618
G0 F3600 X88.963 Y123.442
G1 F1800 X85.949 Y120.428 E0.21618
G0 F3600 X85.949 Y119.777
G1 F1800 X88.963 Y122.791 E0.21618
G0 F3600 X88.963 Y122.141
G1 F1800 X85.949 Y119.126 E0.21622
G0 F3600 X85.949 Y118.476
G1 F1800 X88.963 Y121.49 E0.21618
G0 F3600 X88.963 Y120.84
G1 F1800 X85.949 Y117.825 E0.21622
G0 F3600 X85.949 Y117.175
G1 F1800 X88.963 Y120.189 E0.21618
G0 F3600 X88.963 Y119.539
G1 F1800 X85.949 Y116.524 E0.21622
G0 F3600 X85.949 Y115.874
G1 F1800 X88.963 Y118.888 E0.21618
G0 F3600 X88.963 Y118.238
G1 F1800 X85.949 Y115.223 E0.21622
G0 F3600 X85.949 Y114.573
G1 F1800 X88.963 Y117.587 E0.21618
G0 F3600 X88.963 Y116.937
G1 F1800 X85.949 Y113.922 E0.21622
G0 F3600 X85.949 Y113.272
G1 F1800 X88.963 Y116.286 E0.21618
G0 F3600 X88.963 Y115.636
G1 F1800 X85.949 Y112.621 E0.21622
G0 F3600 X85.949 Y111.971
G1 F1800 X88.963 Y114.985 E0.21618
G0 F3600 X88.963 Y114.334
G1 F1800 X85.949 Y111.32 E0.21618
G0 F3600 X85.949 Y110.669
G1 F1800 X88.963 Y113.684 E0.21622
G0 F3600 X88.963 Y113.033
G1 F1800 X85.949 Y110.019 E0.21618
G0 F3600 X85.949 Y109.368
G1 F1800 X88.963 Y112.383 E0.21622
G0 F3600 X88.963 Y111.732
G1 F1800 X85.949 Y108.718 E0.21618
G0 F3600 X85.949 Y108.067
G1 F1800 X88.963 Y111.082 E0.21622
G0 F3600 X88.963 Y110.431
G1 F1800 X85.949 Y107.417 E0.21618
G0 F3600 X85.949 Y106.766
G1 F1800 X88.963 Y109.781 E0.21622
G0 F3600 X88.963 Y109.13
G1 F1800 X85.949 Y106.116 E0.21618
G0 F3600 X85.949 Y105.465
G1 F1800 X88.963 Y108.48 E0.21622
G0 F3600 X88.963 Y107.829
G1 F1800 X85.949 Y104.815 E0.21618
G0 F3600 X85.949 Y104.164
G1 F1800 X88.963 Y107.179 E0.21622
G0 F3600 X88.963 Y106.528
G1 F1800 X85.949 Y103.514 E0.21618
G0 F3600 X85.949 Y102.863
G1 F1800 X88.963 Y105.877 E0.21618
G0 F3600 X88.963 Y105.227
G1 F1800 X85.949 Y102.212 E0.21622
G0 F3600 X85.949 Y101.562
G1 F1800 X88.963 Y104.576 E0.21618
G0 F3600 X88.963 Y103.926
G1 F1800 X85.949 Y100.911 E0.21622
G0 F3600 X85.949 Y100.261
G1 F1800 X88.963 Y103.275 E0.21618
G0 F3600 X88.963 Y102.625
G1 F1800 X85.949 Y99.61 E0.21622
G0 F3600 X85.949 Y98.96
G1 F1800 X88.963 Y101.974 E0.21618
G0 F3600 X88.963 Y101.324
G1 F1800 X85.949 Y98.309 E0.21622
G0 F3600 X85.949 Y97.659
G1 F1800 X88.963 Y100.673 E0.21618
G0 F3600 X88.963 Y100.023
G1 F1800 X85.949 Y97.008 E0.21622
G0 F3600 X85.949 Y96.358
G1 F1800 X88.963 Y99.372 E0.21618
G0 F3600 X88.963 Y98.722
G1 F1800 X85.949 Y95.707 E0.21622
G0 F3600 X85.949 Y95.057
G1 F1800 X88.963 Y98.071 E0.21618
G0 F3600 X88.963 Y97.42
G1 F1800 X85.949 Y94.406 E0.21618
G0 F3600 X85.949 Y93.755
G1 F1800 X88.963 Y96.77 E0.21622
G0 F3600 X88.963 Y96.119
G1 F1800 X85.949 Y93.105 E0.21618
G0 F3600 X85.949 Y92.454
G1 F1800 X88.963 Y95.469 E0.21622
G0 F3600 X88.963 Y94.818
G1 F1800 X85.949 Y91.804 E0.21618
G0 F3600 X85.949 Y91.153
G1 F1800 X88.963 Y94.168 E0.21622
G0 F3600 X88.963 Y93.517
G1 F1800 X85.949 Y90.503 E0.21618
G0 F3600 X85.949 Y89.852
G1 F1800 X88.963 Y92.867 E0.21622
G0 F3600 X88.963 Y92.216
G1 F1800 X85.949 Y89.202 E0.21618
G0 F3600 X85.949 Y88.551
G1 F1800 X88.963 Y91.566 E0.21622
G0 F3600 X88.963 Y90.915
G1 F1800 X85.949 Y87.901 E0.21618
G0 F3600 X85.949 Y87.25
G1 F1800 X88.963 Y90.265 E0.21622
G0 F3600 X88.963 Y89.614
G1 F1800 X85.949 Y86.6 E0.21618
G0 F3600 X85.949 Y85.949
G1 F1800 X88.963 Y88.963 E0.21618
G0 F3600 X88.963 Y88.313
G1 F1800 X86.6 Y85.949 E0.16953
G0 F3600 X87.25 Y85.949
G1 F1800 X88.963 Y87.662 E0.12287
G0 F3600 X88.963 Y87.012
G1 F1800 X87.901 Y85.949 E0.07621
G0 F3600 X88.551 Y85.949
G1 F1800 X88.963 Y86.361 E0.02955
G1 F3600 E-6.5
G1 F300 Z0.51
G0 F3600 X89.714 Y130.286 Z0.51
;TIME_ELAPSED:68.557872
;LAYER:1
M140 S60
M106 S255
G0 F5400 X89.714 Y130.286 Z0.71
;TYPE:WALL-INNER
G1 F300 Z0.46
G1 F3600 E6.5
G1 F2700 X134.8 Y130.286 E1.51456
G1 X134.8 Y134.8 E0.15164
G1 X85.2 Y134.8 E1.6662
G1 X85.2 Y85.2 E1.6662
G1 X89.714 Y85.2 E0.15164
G1 X89.714 Y130.286 E1.51456
G0 F5400 X90.114 Y129.886
;TYPE:WALL-OUTER
G1 F1800 X135.2 Y129.886 E1.51456
G1 X135.2 Y135.2 E0.17851
G1 X84.8 Y135.2 E1.69307
G1 X84.8 Y84.8 E1.69307
G1 X90.114 Y84.8 E0.17851
G1 X90.114 Y129.886 E1.51456
G0 F5400 X90.314 Y129.886
G1 F3600 E-6.5
G1 F300 Z0.71
G0 F5400 X89.324 Y130.676 Z0.71
;TYPE:SKIN
G1 F300 Z0.46
G1 F3600 E6.5
G1 F1800 X134.41 Y130.676 E1.51456
G1 X134.41 Y134.41 E0.12544
G1 X85.59 Y134.41 E1.64
G1 X85.59 Y85.59 E1.64
G1 X89.324 Y85.59 E0.12544
G1 X89.324 Y130.676 E1.51456
G1 F3600 E-6.5
G1 F300 Z0.71
G0 F5400 X85.769 Y86.198 Z0.71
G1 F300 Z0.46
G1 F3600 E6.5
G1 F1800 X86.198 Y85.769 E0.02038
G0 F5400 X86.764 Y85.769
G1 F1800 X85.769 Y86.764 E0.04727
G0 F5400 X85.769 Y87.329
G1 F1800 X87.329 Y85.769 E0.07411
G0 F5400 X87.895 Y85.769
G1 F1800 X85.769 Y87.895 E0.101
G0 F5400 X85.769 Y88.461
G1 F1800 X88.461 Y85.769 E0.12789
G0 F5400 X89.026 Y85.769
G1 F1800 X85.769 Y89.026 E0.15473
G0 F5400 X85.769 Y89.592
G1 F1800 X89.142 Y86.219 E0.16024
G0 F5400 X89.142 Y86.785
G1 F1800 X85.769 Y90.158 E0.16024
G0 F5400 X85.769 Y90.723
G1 F1800 X89.142 Y87.351 E0.16022
G0 F5400 X89.142 Y87.916
G1 F1800 X85.769 Y91.289 E0.16024
G0 F5400 X85.769 Y91.855
