;FLAVOR:Marlin
;TIME:3828
;Filament used: 8.63754m
;Layer height: 0.2
;Generated with Cura_SteamEngine 3.3.1
M190 S85
M104 S257
M109 S257
M82 ;absolute extrusion mode
G28 ;Home
G1 Z15.0 F6000 ;Move the platform down 15mm
G92 E0
G1 F200 E10
G92 E0
M83 ;relative extrusion mode
G10
;LAYER_COUNT:49
;LAYER:0
M107
M203 Z25
G0 F5400 X30.573 Y32.586 Z0.25
;TYPE:SKIRT
M567 P0 1.0:0.0:0.0:0.0
G11
G1 F900 X31.271 Y32.006 E0.0566
G1 X32.017 Y31.49 E0.05657
G1 X32.806 Y31.041 E0.05661
G1 X33.632 Y30.664 E0.05662
G1 X34.487 Y30.361 E0.05657
G1 X35.366 Y30.134 E0.05662
G1 X36.261 Y29.985 E0.05658
G1 X37.166 Y29.916 E0.0566
G1 X38.073 Y29.927 E0.05657
G1 X38.976 Y30.018 E0.0566
G1 X39.868 Y30.188 E0.05663
G1 X40.741 Y30.435 E0.05658
G1 X41.847 Y30.875 E0.07423
G1 X47.012 Y33.281 E0.35534
G1 X51.827 Y35.2 E0.32325
G1 X54.047 Y35.975 E0.14664
G1 X58.996 Y37.475 E0.3225
G1 X63.905 Y38.664 E0.31499
G1 X68.91 Y39.58 E0.31731
G1 X73.942 Y40.21 E0.31626
G1 X78.998 Y40.553 E0.31603
G1 X84.074 Y40.612 E0.31657
M567 P0 0.5:0.5:0.0:0.0
G1 X89.126 Y40.383 E0.31538
G1 X94.196 Y39.865 E0.31783
G1 X99.271 Y39.054 E0.32051
G1 X101.583 Y38.585 E0.14712
G1 X106.607 Y37.338 E0.32282
G1 X111.462 Y35.837 E0.31691
G1 X116.239 Y34.06 E0.31785
G1 X118.486 Y33.114 E0.15204
G1 X123.134 Y30.92 E0.32053
G1 X128.104 Y28.221 E0.3527
G1 X128.92 Y27.824 E0.05659
G1 X129.768 Y27.5 E0.05661
G1 X130.64 Y27.251 E0.05655
G1 X131.532 Y27.081 E0.05663
G1 X132.435 Y26.99 E0.0566
G1 X133.342 Y26.978 E0.05657
G1 X134.247 Y27.046 E0.0566
G1 X135.143 Y27.194 E0.05663
G1 X136.021 Y27.42 E0.05654
G1 X136.877 Y27.723 E0.05663
G1 X137.703 Y28.1 E0.05662
M567 P0 0.0:1.0:0.0:0.0
G1 X138.492 Y28.547 E0.05655
G1 X139.239 Y29.063 E0.05662
G1 X139.937 Y29.642 E0.05656
G1 X140.302 Y29.99 E0.03145
G1 X147.157 Y36.845 E0.60457
G1 X147.77 Y37.514 E0.05659
G1 X148.307 Y38.214 E0.05502
G1 X150.465 Y41.291 E0.23438
G1 X153.588 Y45.33 E0.3184
G1 X156.917 Y49.166 E0.31675
G1 X160.457 Y52.808 E0.31674
G1 X164.189 Y56.234 E0.31594
G1 X168.093 Y59.433 E0.31476
G1 X173.322 Y63.2 E0.4019
G1 X174.034 Y63.762 E0.05657
G1 X174.582 Y64.272 E0.04668
G1 X181.441 Y71.127 E0.60475
G1 X182.054 Y71.796 E0.05659
G1 X182.606 Y72.516 E0.05658
G1 X183.092 Y73.283 E0.05663
G1 X183.509 Y74.089 E0.05659
G1 X183.853 Y74.929 E0.05661
M567 P0 0.0:0.5:0.5:0.0
G1 X184.122 Y75.795 E0.05655
G1 X184.314 Y76.682 E0.0566
G1 X184.427 Y77.583 E0.05663
G1 X184.46 Y78.49 E0.0566
G1 X184.413 Y79.396 E0.05658
G1 X184.286 Y80.295 E0.05662
G1 X184.081 Y81.179 E0.05659
G1 X183.799 Y82.041 E0.05656
G1 X183.442 Y82.876 E0.05663
G1 X183.123 Y83.487 E0.04298
G1 X181.881 Y85.68 E0.15717
G1 X179.504 Y90.318 E0.32501
G1 X178.499 Y92.505 E0.1501
G1 X176.55 Y97.269 E0.321
G1 X174.898 Y102.06 E0.31604
G1 X173.498 Y107.016 E0.32116
G1 X172.917 Y109.46 E0.15666
G1 X172.432 Y111.805 E0.14934
G1 X171.599 Y116.9 E0.32196
G1 X171.064 Y121.947 E0.31651
G1 X170.815 Y127.017 E0.31656
M567 P0 0.0:0.0:1.0:0.0
G1 X170.853 Y132.093 E0.31656
G1 X171.178 Y137.155 E0.31633
G1 X171.787 Y142.183 E0.31585
G1 X172.697 Y147.265 E0.32197
G1 X173.21 Y149.563 E0.14684
G1 X174.548 Y154.55 E0.322
G1 X176.142 Y159.385 E0.31749
G1 X177.994 Y164.085 E0.31504
G1 X180.546 Y169.58 E0.37784
G1 X180.892 Y170.419 E0.0566
G1 X181.163 Y171.285 E0.05659
G1 X181.356 Y172.172 E0.05661
G1 X181.47 Y173.072 E0.05657
G1 X181.505 Y173.979 E0.05661
G1 X181.46 Y174.885 E0.05657
G1 X181.335 Y175.784 E0.0566
G1 X181.131 Y176.669 E0.05664
G1 X180.851 Y177.532 E0.05658
G1 X180.495 Y178.367 E0.05661
G1 X180.068 Y179.167 E0.05655
G1 X179.571 Y179.927 E0.05663
G1 X179.01 Y180.64 E0.05658
M567 P0 0.0:0.0:0.5:0.5
G1 X178.242 Y181.441 E0.0692
G1 X170.755 Y188.445 E0.63937
G1 X170.191 Y188.935 E0.04659
G1 X169.405 Y189.57 E0.06301
G1 X168.674 Y190.109 E0.05664
G1 X167.899 Y190.581 E0.05659
G1 X167.086 Y190.983 E0.05656
G1 X166.24 Y191.312 E0.05661
G1 X165.369 Y191.566 E0.05658
G1 X164.478 Y191.741 E0.05663
G1 X163.221 Y191.854 E0.07871
G1 X162.936 Y191.862 E0.01778
G1 X162.029 Y191.847 E0.05657
G1 X161.126 Y191.753 E0.05662
G1 X160.235 Y191.58 E0.0566
G1 X159.363 Y191.328 E0.05661
G1 X158.517 Y191.002 E0.05654
G1 X157.675 Y190.587 E0.05854
G1 X157.421 Y190.447 E0.01809
G1 X156.646 Y189.974 E0.05662
G1 X155.916 Y189.435 E0.05659
G1 X155.152 Y188.751 E0.06395
M567 P0 0.0:0.0:0.0:1.0
G1 X154.113 Y187.724 E0.09111
G1 X153.497 Y187.059 E0.05653
G1 X152.941 Y186.341 E0.05663
G1 X152.307 Y185.322 E0.07484
G1 X150.162 Y181.38 E0.27987
G1 X147.502 Y177.026 E0.31819
G1 X144.617 Y172.855 E0.31627
G1 X141.5 Y168.852 E0.31639
G1 X138.119 Y164.983 E0.32043
G1 X135.681 Y162.448 E0.21934
G1 X47.024 Y73.846 E7.81661
G1 X45.262 Y72.23 E0.1491
G1 X41.326 Y68.91 E0.32112
G1 X37.277 Y65.872 E0.31568
G1 X33.046 Y63.054 E0.31702
G1 X28.618 Y60.455 E0.32019
G1 X26.204 Y59.174 E0.17043
G1 X25.422 Y58.714 E0.05658
G1 X24.683 Y58.186 E0.05664
G1 X23.755 Y57.366 E0.07723
G1 X22.759 Y56.372 E0.08775
G1 X22.146 Y55.703 E0.05659
G1 X21.593 Y54.983 E0.05662
G1 X21.211 Y54.395 E0.04373
G1 X21.046 Y54.121 E0.01995
G1 X20.613 Y53.323 E0.05662
G1 X20.251 Y52.491 E0.05658
G1 X19.964 Y51.63 E0.0566
G1 X19.754 Y50.747 E0.0566
G1 X19.623 Y49.849 E0.05659
G1 X19.571 Y48.943 E0.05659
G1 X19.616 Y47.84 E0.06884
G1 X19.651 Y47.469 E0.02324
G1 X19.775 Y46.57 E0.05659
G1 X19.979 Y45.685 E0.05664
G1 X20.26 Y44.822 E0.0566
G1 X20.615 Y43.987 E0.05658
G1 X21.043 Y43.187 E0.05658
G1 X21.539 Y42.427 E0.0566
G1 X22.336 Y41.45 E0.07863
G1 X29.928 Y33.225 E0.69804
G1 X30.573 Y32.586 E0.05662
G0 F5400 X37.59 Y41.376
G10
M203 Z5
M82 ;absolute extrusion mode
M104 S0
M140 S0
G92 E1
G1 E-12 F300
G91
G0 Z10
G90
G0 Y200
M84
M82 ;absolute extrusion mode
M104 S0