;FLAVOR:RepRap
;TIME:2534
;Filament used: 3.15278m
;Layer height: 0.2
;Generated with Cura_SteamEngine 3.5.1
T0
M190 S80
M104 S230
M109 S230
M82 ;absolute extrusion mode
M98 Pprint_start.g
M83 ;relative extrusion mode
G1 F4800 E-6
;LAYER_COUNT:94
;LAYER:0
M107
G0 F5400 X97.7 Y95.088 Z0.3
;TYPE:SKIRT
G1 F1800 E6
G1 F1080 X98.007 Y94.783 E0.03643
G1 X98.311 Y94.57 E0.03125
G1 X99.493 Y93.876 E0.1154
G1 X99.884 Y93.692 E0.03638
G1 X100.253 Y93.593 E0.03216
G1 X101.626 Y93.34 E0.11754
G1 X102.05 Y93.301 E0.03585
G1 X132.898 Y93.297 E2.59708
G1 X133.295 Y93.331 E0.03355
G1 X134.664 Y93.567 E0.11696
G1 X135.081 Y93.679 E0.03635
G1 X135.423 Y93.839 E0.03179
G1 X136.626 Y94.523 E0.11651
G1 X136.98 Y94.77 E0.03634
G1 X137.251 Y95.04 E0.03221
G1 X138.146 Y96.092 E0.11628
G1 X138.391 Y96.439 E0.03576
G1 X154.438 Y124.276 E2.7051
G1 X154.581 Y124.572 E0.02768
G1 X154.862 Y125.271 E0.06343
G1 X155.015 Y125.87 E0.05205
G1 X155.171 Y127.197 E0.11249
G1 X155.187 Y127.473 E0.02328
G1 X155.177 Y135.385 E0.66611
G1 X155.132 Y135.841 E0.03858
G1 X154.827 Y137.365 E0.13085
G1 X154.703 Y137.779 E0.03638
G1 X154.478 Y138.205 E0.04056
G1 X153.616 Y139.495 E0.13062
G1 X153.344 Y139.83 E0.03633
G1 X152.97 Y140.141 E0.04095
G1 X151.674 Y141.006 E0.13118
G1 X151.294 Y141.211 E0.03635
G1 X150.863 Y141.348 E0.03807
G1 X150.009 Y141.53 E0.07351
G1 X149.939 Y141.544 E0.00601
G1 X149.266 Y141.666 E0.05758
G1 X148.849 Y141.703 E0.03525
G1 X127.972 Y141.703 E1.75763
G1 X127.517 Y141.658 E0.03849
G1 X126.362 Y141.429 E0.09913
G1 X126.119 Y141.367 E0.02111
G1 X119.098 Y139.171 E0.61933
G1 X113.676 Y137.852 E0.46979
G1 X111.035 Y137.328 E0.22668
G1 X105.571 Y136.481 E0.46551
G1 X100.035 Y135.943 E0.46827
G1 X97.34 Y135.795 E0.22723
G1 X93.299 Y135.713 E0.34028
G1 X86.115 Y135.698 E0.60482
G1 X85.66 Y135.652 E0.0385
G1 X84.159 Y135.351 E0.12888
G1 X83.745 Y135.228 E0.03636
G1 X83.319 Y135.002 E0.0406
G1 X82.03 Y134.14 E0.13055
G1 X81.695 Y133.868 E0.03633
G1 X81.386 Y133.496 E0.04071
G1 X80.519 Y132.199 E0.13134
G1 X80.313 Y131.82 E0.03632
G1 X80.176 Y131.385 E0.0384
G1 X79.995 Y130.532 E0.07341
G1 X79.981 Y130.464 E0.00584
G1 X79.859 Y129.791 E0.05758
G1 X79.822 Y129.338 E0.03826
G1 X79.861 Y126.793 E0.21429
G1 X79.886 Y126.489 E0.02568
G1 X79.978 Y125.864 E0.05319
G1 X80.144 Y125.279 E0.0512
G1 X80.681 Y124.032 E0.11431
G1 X80.804 Y123.787 E0.02308
G1 X96.576 Y96.488 E2.6543
G1 X96.805 Y96.16 E0.03368
G1 X97.499 Y95.329 E0.09115
G0 F972 X97.7 Y95.088
G1 F4800 E-6
G1 F300 Z0.5
G0 F5400 X128.861 Y97.311 Z0.5
;TYPE:WALL-INNER
G1 F300 Z0.3
G1 F1800 E6.02652
G1 F1080 X128.85 Y97.323 E0.00137
G1 X128.75 Y97.732 E0.03545
G1 X128.315 Y99.5 E0.15329
G1 X128.851 Y101.676 E0.18867
G1 X130.337 Y103.357 E0.18889
G1 X132.434 Y104.151 E0.18878
G1 X134.661 Y103.883 E0.18884
G1 X136.509 Y102.607 E0.18907
G1 X136.612 Y102.411 E0.01864
G1 X136.613 Y102.41 E0.00012
G1 X136.896 Y101.87 E0.05133
G1 X137.201 Y102.399 E0.02889
G1 X150.801 Y125.955 E2.28997
G1 X151.073 Y126.609 E0.05963
G1 X151.164 Y127.308 E0.05935
G1 X151.164 Y135.208 E0.6651
G1 X150.958 Y136.248 E0.08926
G1 X150.462 Y136.987 E0.07493
G1 X149.723 Y137.483 E0.07493
G1 X148.683 Y137.689 E0.08926
G1 X128.129 Y137.689 E1.73044
G1 X127.472 Y137.559 E0.05639
G1 X127.056 Y137.28 E0.04217
G1 X126.78 Y136.867 E0.04182
G1 X126.322 Y134.57 E0.19719
G1 X125.3 Y133.038 E0.15504
G1 X123.767 Y132.015 E0.15516
G1 X122.127 Y131.689 E0.14077
G1 X99.12 Y131.689 E1.93695
G1 X98.811 Y131.689 E0.02601
G1 X96.584 Y131.689 E0.18749
G1 X95.325 Y131.689 E0.10599
G1 X86.317 Y131.689 E0.75838
G1 X85.277 Y131.483 E0.08926
G1 X84.538 Y130.987 E0.07493
G1 X84.042 Y130.248 E0.07493
G1 X83.836 Y129.208 E0.08926
G1 X83.836 Y127.308 E0.15996
G1 X83.927 Y126.609 E0.05935
G1 X84.199 Y125.955 E0.05963
G1 X99.994 Y98.596 E2.65964
G1 X100.603 Y97.873 E0.07959
G1 X101.289 Y97.475 E0.06677
G1 X102.222 Y97.311 E0.07975
G1 X128.428 Y97.311 E2.20628
G1 X128.85 Y97.311 E0.02182
G1 X128.861 Y97.311
G0 F5400 X129.466 Y97.646
G1 F1080 X129.01 Y99.5 E0.16074
G1 X129.467 Y101.353 E0.16068
G1 X130.732 Y102.785 E0.16086
G1 X132.518 Y103.461 E0.16077
G1 X134.415 Y103.233 E0.16086
G1 X135.988 Y102.146 E0.16097
G1 X136.583 Y101.012 E0.10781
G1 X136.867 Y100.47 E0.05152
G1 X137.173 Y101 E0.02892
G1 X151.406 Y125.653 E2.3966
G1 X151.695 Y126.35 E0.06352
G1 X151.73 Y126.433 E0.00758
G1 X151.741 Y126.521 E0.00747
G1 X151.832 Y127.22 E0.05935
G1 X151.839 Y127.266 E0.00392
G1 X151.839 Y135.274 E0.67419
G1 X151.593 Y136.513 E0.10635
G1 X150.949 Y137.474 E0.09739
G1 X149.988 Y138.118 E0.09739
G1 X148.749 Y138.364 E0.10635
G1 X128.063 Y138.364 E1.74155
G1 X127.207 Y138.194 E0.07347
G1 X126.57 Y137.767 E0.06456
G1 X126.144 Y137.13 E0.06452
G1 X125.686 Y134.833 E0.19719
G1 X124.813 Y133.525 E0.13239
G1 X123.504 Y132.651 E0.13251
G1 X122.061 Y132.364 E0.12387
G1 X86.251 Y132.364 E3.01483
G1 X85.012 Y132.118 E0.10635
G1 X84.051 Y131.474 E0.09739
G1 X83.407 Y130.513 E0.09739
G1 X83.161 Y129.274 E0.10635
G1 X83.161 Y127.266 E0.16905
G1 X83.27 Y126.433 E0.07073
G1 X83.594 Y125.653 E0.07111
G1 X99.438 Y98.208 E2.66798
G1 X100.162 Y97.348 E0.09464
G1 X101.055 Y96.831 E0.08687
G1 X102.162 Y96.636 E0.09463
G1 X129.612 Y96.636 E2.31101
G1 X130.36 Y96.636 E0.06297
G1 X129.864 Y97.196 E0.03427
G1 X129.466 Y97.646 E0.05058
G0 F5400 X129.378 Y97.599
G0 X131.104 Y96.755
G0 X132.598 Y96.189
G0 X134.204 Y96.323
G0 X134.169 Y96.416
;TYPE:WALL-OUTER
G1 F1080 X134.152 Y96.414 E0.00144
G1 X132.863 Y96.26 E0.10929
G1 X132.602 Y96.228 E0.02214
G1 X131.558 Y96.623 E0.09397
G1 X131.126 Y96.787 E0.0389
G1 X130.081 Y97.968 E0.13276
G1 X129.704 Y99.5 E0.13283
G1 X130.082 Y101.031 E0.13276
G1 X131.127 Y102.214 E0.13289
G1 X132.602 Y102.772 E0.13277
G1 X134.169 Y102.584 E0.13287
G1 X135.468 Y101.686 E0.13295
G1 X136.201 Y100.289 E0.13282
G1 X136.201 Y99.278 E0.08512
G1 X136.201 Y98.711 E0.04774
G1 X135.817 Y97.978 E0.06967
G1 X135.468 Y97.314 E0.06315
G1 X135.111 Y97.068 E0.0365
G1 X134.428 Y96.595 E0.06994
G0 F972 X134.169 Y96.416
G0 F5400 X134.152 Y96.414
G0 X133.971 Y96.393
G1 F4800 E-6
G0 F5400 X133.983 Y96.294
G0 X132.598 Y96.189
G0 X131.104 Y96.755
G0 X99.647 Y129.037
G0 X98.333 Y129.946
G0 X94.487 Y130.682
;TYPE:WALL-INNER
G1 F1800 E6.02652
G1 F1080 X95.407 Y131.031 E0.08284
G1 X96.584 Y131.476 E0.07028
G1 X98.811 Y131.208 E0.09771
G1 X99.065 Y131.033 E0.02241
G1 X100.659 Y129.932 E0.1631
G1 X101.7 Y127.946 E0.18878
G1 X101.7 Y125.704 E0.18875
G1 X100.659 Y123.718 E0.18878
G1 X98.811 Y122.442 E0.18907
G1 X96.584 Y122.174 E0.18884
G1 X94.487 Y122.969 E0.18881
G1 X93 Y124.648 E0.18882
G1 X92.465 Y126.825 E0.18873
G1 X93.001 Y129.001 E0.18867
G1 X94.279 Y130.446 E0.16241
G0 F972 X94.487 Y130.682
G0 F5400 X94.882 Y130.11
G1 F1800 E0.02652
G1 F1080 X96.668 Y130.786 E0.16077
G1 X98.565 Y130.558 E0.16086
G1 X100.138 Y129.471 E0.16097
G1 X101.025 Y127.78 E0.16076
G1 X101.025 Y125.87 E0.1608
G1 X100.138 Y124.179 E0.16076
G1 X98.565 Y123.092 E0.16097
G1 X96.668 Y122.864 E0.16086
G1 X94.882 Y123.541 E0.1608
G1 X93.616 Y124.971 E0.16079
G1 X93.16 Y126.825 E0.16074
G1 X93.617 Y128.678 E0.16068
G1 X94.674 Y129.874 E0.13438
G0 F972 X94.882 Y130.11
G0 F5400 X95.277 Y129.539
;TYPE:WALL-OUTER
G1 F1800 E0.02652
G1 F1080 X96.752 Y130.097 E0.13277
G1 X98.319 Y129.909 E0.13287
G1 X99.618 Y129.011 E0.13295
G1 X100.351 Y127.614 E0.13282
G1 X100.351 Y126.036 E0.13285
G1 X99.618 Y124.639 E0.13282
G1 X98.319 Y123.741 E0.13295
G1 X96.752 Y123.553 E0.13287
G1 X95.276 Y124.112 E0.13288
G1 X94.231 Y125.293 E0.13276
G1 X93.854 Y126.825 E0.13283
G1 X94.232 Y128.356 E0.13276
G1 X95.069 Y129.303 E0.10641
G0 F972 X95.277 Y129.539
G0 F5400 X95.464 Y129.609
G0 X95.201 Y130.303
G1 F4800 E-6
G0 F5400 X95.189 Y130.333
G0 X96.664 Y130.825
G0 X122.062 Y132.325
G0 X123.52 Y132.615
G0 X124.757 Y133.368
G0 X124.327 Y134.011
G1 F1800 E6.02652
G1 F1080 X123.241 Y133.286 E0.10993
G1 X121.995 Y133.038 E0.10696
G1 X86.186 Y133.038 E3.01475
G1 X84.749 Y132.753 E0.12334
G1 X83.565 Y131.96 E0.11997
G1 X82.772 Y130.776 E0.11997
G1 X82.487 Y129.339 E0.12334
G1 X82.487 Y127.224 E0.17806
G1 X82.614 Y126.255 E0.08228
G1 X82.988 Y125.354 E0.08213
G1 X98.884 Y97.82 E2.67666
G1 X99.721 Y96.824 E0.10953
G1 X100.822 Y96.187 E0.10709
G1 X102.102 Y95.962 E0.10942
G1 X131.485 Y95.962 E2.47375
G1 X132.602 Y95.962 E0.06603
G1 X132.898 Y95.962 E0.0113
G1 X134.178 Y96.187 E0.04326
G1 X134.269 Y96.24 E0.00538
G1 X135.279 Y96.824 E0.03682
G1 X135.598 Y97.204 E0.01638
G1 X136.116 Y97.82 E0.02715
G1 X136.522 Y98.524 E0.03563
G1 X136.805 Y99.015 E0.03732
G1 X152.012 Y125.354 E2.56052
G1 X152.386 Y126.255 E0.08213
G1 X152.513 Y127.224 E0.08228
G1 X152.513 Y135.339 E0.6832
G1 X152.228 Y136.776 E0.12334
G1 X151.435 Y137.96 E0.11997
G1 X150.251 Y138.753 E0.11997
G1 X148.814 Y139.038 E0.12334
G1 X127.998 Y139.038 E1.75249
G1 X126.944 Y138.829 E0.09046
G1 X126.084 Y138.253 E0.08714
G1 X125.509 Y137.393 E0.0871
G1 X125.051 Y135.096 E0.19719
G1 X124.501 Y134.273 E0.08334
G0 F972 X124.327 Y134.011
G0 F5400 X124.161 Y133.9
G0 X124.574 Y133.284
G0 X124.592 Y133.258
G0 X125.779 Y132.559
;TYPE:SKIN
G1 F1800 E0.02652
G1 F1080 X124.025 Y131.39 E0.17746
G1 X122.192 Y131.025 E0.15735
G1 X100.245 Y131.025 E1.84771
G1 X101.171 Y130.385 E0.09477
G1 X102.364 Y128.11 E0.21627
G1 X102.364 Y125.54 E0.21637
G1 X101.171 Y123.265 E0.21627
G1 X99.053 Y121.802 E0.21672
G1 X96.501 Y121.496 E0.21639
G1 X94.099 Y122.406 E0.21625
G1 X92.395 Y124.331 E0.21644
G1 X91.781 Y126.825 E0.21624
G1 X92.396 Y129.318 E0.21618
G1 X93.905 Y131.025 E0.19181
G1 X86.386 Y131.025 E0.63302
G1 X85.537 Y130.857 E0.07286
G1 X85.017 Y130.508 E0.05272
G1 X84.668 Y129.988 E0.05272
G1 X84.5 Y129.139 E0.07286
G1 X84.5 Y127.348 E0.15078
G1 X84.573 Y126.783 E0.04796
G1 X84.797 Y126.247 E0.04891
G1 X100.537 Y98.982 E2.65048
G1 X101.037 Y98.388 E0.06537
G1 X101.519 Y98.109 E0.04689
G1 X102.281 Y97.975 E0.06514
G1 X128.006 Y97.975 E2.16578
G1 X127.631 Y99.5 E0.13221
G1 X128.246 Y101.993 E0.21618
G1 X129.949 Y103.92 E0.21651
G1 X132.351 Y104.829 E0.21622
G1 X134.903 Y104.523 E0.21639
G1 X136.875 Y103.161 E0.20177
G1 X150.203 Y126.247 E2.24425
G1 X150.427 Y126.783 E0.04891
G1 X150.5 Y127.348 E0.04796
G1 X150.5 Y135.139 E0.65592
G1 X150.332 Y135.988 E0.07286
G1 X149.983 Y136.508 E0.05272
G1 X149.463 Y136.857 E0.05272
G1 X148.614 Y137.025 E0.07286
G1 X128.198 Y137.025 E1.71882
G1 X127.732 Y136.933 E0.03999
G1 X127.534 Y136.8 E0.02008
G1 X127.405 Y136.607 E0.01954
G1 X126.947 Y134.312 E0.19703
G1 X125.953 Y132.821 E0.15086
G0 F972 X125.779 Y132.559
G1 F4800 E-6
G0 F5400 X136.663 Y104.098
G1 F1800 E6.02652
G1 F1080 X136.598 Y104.142 E0.00661
G1 X136.812 Y104.356 E0.02548
G1 X138.116 Y106.614 E0.21952
G1 X136.034 Y104.533 E0.24783
G1 X135.47 Y104.923 E0.05773
G1 X139.42 Y108.873 E0.4703
G1 X140.724 Y111.131 E0.21952
G1 X134.785 Y105.193 E0.70705
G1 X133.933 Y105.295 E0.07224
G1 X142.028 Y113.39 E0.96381
G1 X143.331 Y115.648 E0.21948
G1 X133.08 Y105.397 E1.22051
G1 X132.269 Y105.493 E0.06875
G1 X132.194 Y105.465 E0.00674
G1 X144.635 Y117.907 E1.48131
G1 X145.94 Y120.166 E0.21964
G1 X130.659 Y104.885 E1.81939
G0 F5400 X129.567 Y104.472
G1 F1080 X127.652 Y102.304 E0.24353
G1 X127.513 Y101.739 E0.04899
G1 X124.4 Y98.626 E0.37064
G1 X123.445 Y98.626 E0.0804
G1 X147.244 Y122.424 E2.8335
G1 X148.548 Y124.683 E0.2196
G1 X122.491 Y98.626 E3.1024
G1 X121.536 Y98.626 E0.0804
G1 X149.74 Y126.83 E3.35803
G1 X149.792 Y126.956 E0.01148
G1 X149.848 Y127.385 E0.03642
G1 X149.848 Y127.892 E0.04268
G1 X120.582 Y98.626 E3.48448
G1 X119.627 Y98.626 E0.0804
G1 X149.848 Y128.847 E3.59818
G1 X149.848 Y129.802 E0.0804
G1 X118.673 Y98.626 E3.71182
G1 X117.718 Y98.626 E0.0804
G1 X149.848 Y130.756 E3.82547
G1 X149.848 Y131.711 E0.0804
G1 X116.763 Y98.626 E3.93917
G1 X115.809 Y98.626 E0.08032
G1 X149.848 Y132.665 E4.05276
G1 X149.848 Y133.62 E0.0804
G1 X114.854 Y98.626 E4.16646
G1 X113.9 Y98.626 E0.08032
G1 X149.848 Y134.575 E4.28011
G1 X149.848 Y135.072 E0.04184
G1 X149.772 Y135.454 E0.03279
G1 X112.945 Y98.626 E4.38476
G1 X111.99 Y98.626 E0.0804
G1 X149.447 Y136.082 E4.45965
G1 X149.207 Y136.243 E0.02433
G1 X148.744 Y136.334 E0.03973
G1 X111.036 Y98.626 E4.4896
G1 X110.081 Y98.626 E0.0804
G1 X147.828 Y136.373 E4.49424
G1 X146.873 Y136.373 E0.0804
G1 X109.127 Y98.626 E4.49418
G1 X108.172 Y98.626 E0.0804
G1 X145.919 Y136.373 E4.49424
G1 X144.964 Y136.373 E0.0804
G1 X107.217 Y98.626 E4.49424
G1 X106.263 Y98.626 E0.08032
G1 X144.01 Y136.373 E4.49424
G1 X143.055 Y136.373 E0.0804
G1 X105.308 Y98.626 E4.49424
G1 X104.354 Y98.626 E0.08032
G1 X142.1 Y136.373 E4.49418
G1 X141.146 Y136.373 E0.08032
G1 X103.399 Y98.626 E4.49424
G1 X102.444 Y98.626 E0.0804
G1 X140.191 Y136.373 E4.49424
G1 X139.237 Y136.373 E0.08032
G1 X101.65 Y98.786 E4.47519
G1 X101.458 Y98.897 E0.01867
G1 X101.159 Y99.25 E0.03895
G1 X138.282 Y136.373 E4.41995
G1 X137.327 Y136.373 E0.0804
G1 X100.792 Y99.837 E4.35
G1 X100.443 Y100.443 E0.05887
G1 X136.373 Y136.373 E4.27791
G1 X135.418 Y136.373 E0.0804
G1 X100.093 Y101.048 E4.20587
G1 X99.743 Y101.652 E0.05877
G1 X134.464 Y136.373 E4.13396
G1 X133.509 Y136.373 E0.0804
G1 X99.394 Y102.258 E4.06181
G1 X99.045 Y102.863 E0.0588
G1 X132.554 Y136.373 E3.98972
G1 X131.6 Y136.373 E0.08032
G1 X98.695 Y103.468 E3.91774
G1 X98.346 Y104.074 E0.05887
G1 X130.645 Y136.373 E3.84559
G1 X129.691 Y136.373 E0.08032
G1 X127.605 Y134.287 E0.24836
G1 X127.559 Y134.058 E0.01966
G1 X126.248 Y132.088 E0.19922
G1 X124.278 Y130.776 E0.19927
G0 F5400 X124.048 Y130.73
G1 F1080 X97.997 Y104.679 E3.10169
G1 X97.647 Y105.284 E0.05884
G1 X122.856 Y130.493 E3.00144
G1 X122.255 Y130.373 E0.0516
G1 X121.782 Y130.373 E0.03982
G1 X97.298 Y105.889 E2.91512
G1 X96.949 Y106.495 E0.05887
G1 X120.827 Y130.373 E2.84297
G1 X119.872 Y130.373 E0.0804
G1 X96.599 Y107.1 E2.77094
G1 X96.25 Y107.705 E0.0588
G1 X118.918 Y130.373 E2.6989
G1 X117.963 Y130.373 E0.0804
G1 X95.901 Y108.311 E2.62675
G1 X95.552 Y108.916 E0.0588
G1 X117.009 Y130.373 E2.55472
G1 X116.054 Y130.373 E0.0804
G1 X95.202 Y109.52 E2.48275
G1 X94.852 Y110.126 E0.05892
G1 X115.1 Y130.373 E2.41071
G1 X114.145 Y130.373 E0.0804
G1 X94.503 Y110.731 E2.33862
G1 X94.154 Y111.336 E0.0588
G1 X113.19 Y130.373 E2.26653
G1 X112.236 Y130.373 E0.08032
G1 X93.804 Y111.942 E2.1945
G1 X93.455 Y112.547 E0.0588
G1 X111.281 Y130.373 E2.1224
G1 X110.327 Y130.373 E0.08032
G1 X93.106 Y113.152 E2.05037
G1 X92.756 Y113.757 E0.05884
G1 X109.372 Y130.373 E1.97834
G1 X108.417 Y130.373 E0.0804
G1 X102.564 Y124.52 E0.69687
G1 X101.673 Y122.82 E0.16159
G1 X99.291 Y121.173 E0.24381
G0 F5400 X99.207 Y121.162
G1 F1080 X92.407 Y114.363 E0.80956
G1 X92.058 Y114.968 E0.0588
G1 X98.123 Y121.033 E0.72211
G1 X97.039 Y120.903 E0.09192
G1 X91.708 Y115.573 E0.63466
G1 X91.359 Y116.179 E0.05887
G1 X96.122 Y120.942 E0.56709
G1 X95.43 Y121.204 E0.0623
G1 X91.009 Y116.783 E0.52637
G1 X90.66 Y117.388 E0.0588
G1 X94.738 Y121.466 E0.48554
G1 X94.045 Y121.729 E0.0624
G1 X90.31 Y117.994 E0.4447
G1 X89.961 Y118.599 E0.0588
G1 X93.482 Y122.12 E0.41922
G1 X93.034 Y122.627 E0.05696
G1 X89.612 Y119.204 E0.40749
G1 X89.263 Y119.81 E0.05887
G1 X92.586 Y123.133 E0.39564
G1 X92.138 Y123.639 E0.0569
G1 X88.913 Y120.415 E0.38392
G1 X88.564 Y121.02 E0.0588
G1 X91.755 Y124.211 E0.37993
G1 X91.566 Y124.977 E0.06642
G1 X88.215 Y121.625 E0.39904
G1 X87.865 Y122.231 E0.05892
G1 X91.377 Y125.743 E0.41815
G1 X91.189 Y126.509 E0.0664
G1 X87.516 Y122.836 E0.43732
G1 X87.167 Y123.441 E0.0588
G1 X91.295 Y127.569 E0.49149
G1 X91.607 Y128.836 E0.10985
G1 X86.817 Y124.047 E0.57025
G1 X86.467 Y124.651 E0.05877
G1 X92.189 Y130.372 E0.68121
G1 X91.234 Y130.372 E0.0804
G1 X86.118 Y125.256 E0.60912
G1 X85.769 Y125.862 E0.05887
G1 X90.279 Y130.372 E0.53697
G1 X89.325 Y130.372 E0.08032
G1 X85.419 Y126.467 E0.465
G1 X85.383 Y126.532 E0.00626
G1 X85.206 Y126.955 E0.0386
G1 X85.177 Y127.179 E0.01902
G1 X88.37 Y130.372 E0.38017
G1 X87.416 Y130.372 E0.08032
G1 X85.151 Y128.107 E0.26968
G1 X85.151 Y129.062 E0.0804
G1 X86.461 Y130.372 E0.15597
G1 X85.791 Y130.241 E0.05748
G1 X85.486 Y130.038 E0.03085
G1 X85.282 Y129.732 E0.03096
G1 X85.151 Y129.072 E0.05665
G1 F4800 E-6
G0 F5400 X96.664 Y130.825
