;FLAVOR:RepRap
;TIME:4818
;Filament used: 7.96697m
;Layer height: 0.2
;Generated with Cura_SteamEngine 3.5.0
T0
M190 S85
M104 S255
M109 S255
M82 ;absolute extrusion mode
G28 ;Home
G1 Z15.0 F6000 ;Move the platform down 15mm
G92 E0
G1 F200 E10
G92 E0
M83 ;relative extrusion mode
G1 F3600 E-8
;LAYER_COUNT:50
;LAYER:0
M107
G0 F5400 X72.636 Y63.003 Z0.25
;TYPE:SKIRT
G1 F2700 E8
G1 F900 X73.039 Y62.573 E0.05513
G1 X73.496 Y62.2 E0.05518
G1 X74 Y61.893 E0.0552
G1 X74.54 Y61.657 E0.05513
G1 X75.107 Y61.496 E0.05514
G1 X75.691 Y61.414 E0.05517
G1 X76.008 Y61.402 E0.02967
G1 X85.998 Y61.401 E0.93451
G1 X86.704 Y61.459 E0.06626
G1 X94.009 Y62.661 E0.69253
G1 X99.377 Y63.187 E0.50455
G1 X104.783 Y63.41 E0.50613
G1 X110.176 Y63.327 E0.50454
G1 X115.591 Y62.936 E0.50786
G1 X120.959 Y62.243 E0.50631
G1 X125.238 Y61.47 E0.40675
G1 X126.011 Y61.401 E0.0726
G1 X135.992 Y61.401 E0.93366
G1 X136.58 Y61.441 E0.05513
G1 X137.158 Y61.56 E0.0552
G1 X137.714 Y61.756 E0.05515
G1 X138.238 Y62.026 E0.05514
G1 X138.721 Y62.364 E0.05515
G1 X139.154 Y62.764 E0.05514
G1 X139.529 Y63.219 E0.05516
G1 X139.839 Y63.72 E0.05511
G1 X140.078 Y64.259 E0.05515
G1 X140.176 Y64.562 E0.02979
G1 X142.11 Y71.365 E0.6616
G1 X143.916 Y76.465 E0.5061
G1 X146.01 Y81.459 E0.50656
G1 X148.373 Y86.309 E0.50467
G1 X151.027 Y91.054 E0.50858
G1 X152.419 Y93.312 E0.24813
G1 X155.478 Y97.832 E0.51055
G1 X158.748 Y102.121 E0.50452
G1 X162.268 Y106.232 E0.50627
G1 X166.008 Y110.131 E0.5054
G1 X170 Y113.846 E0.51011
G1 X172.029 Y115.581 E0.24973
G1 X174.124 Y117.27 E0.25173
G1 X178.474 Y120.485 E0.50599
G1 X183.015 Y123.459 E0.50778
G1 X187.699 Y126.163 E0.50593
G1 X192.53 Y128.597 E0.50603
G1 X197.526 Y130.769 E0.5096
G1 X200.016 Y131.73 E0.24967
G1 X204.762 Y133.345 E0.46896
G1 X205.306 Y133.572 E0.05514
G1 X205.814 Y133.871 E0.05514
G1 X206.278 Y134.236 E0.05522
G1 X206.687 Y134.66 E0.05511
G1 X207.036 Y135.135 E0.05514
G1 X207.317 Y135.654 E0.05521
G1 X207.525 Y136.205 E0.05509
G1 X207.657 Y136.78 E0.05519
G1 X207.708 Y137.613 E0.07807
G1 X207.341 Y148.266 E0.99712
G1 X207.322 Y148.548 E0.02644
G1 X207.23 Y149.469 E0.08658
G1 X207.132 Y150.051 E0.05521
G1 X206.956 Y150.613 E0.05509
G1 X206.706 Y151.147 E0.05516
G1 X206.386 Y151.642 E0.05514
G1 X206.001 Y152.089 E0.05519
G1 X205.722 Y152.349 E0.03567
G1 X205.473 Y152.561 E0.03059
G1 X204.999 Y152.912 E0.05517
G1 X204.482 Y153.196 E0.05518
G1 X203.932 Y153.407 E0.05511
G1 X203.358 Y153.542 E0.05516
G1 X202.749 Y153.598 E0.05721
G1 X201.114 Y153.634 E0.15298
G1 X200.525 Y153.607 E0.05516
G1 X199.725 Y153.438 E0.07649
G1 X197.787 Y152.835 E0.18986
G1 X192.499 Y151.383 E0.51297
G1 X187.164 Y150.236 E0.51046
G1 X184.57 Y149.796 E0.24612
G1 X179.178 Y149.11 E0.50846
G1 X173.774 Y148.732 E0.50675
G1 X169.757 Y148.648 E0.37585
G1 X39.489 Y148.688 E12.18581
G1 X34.085 Y148.994 E0.50632
G1 X28.708 Y149.605 E0.50622
G1 X23.367 Y150.52 E0.5069
G1 X20.745 Y151.085 E0.2509
G1 X18.152 Y151.72 E0.24973
G1 X12.225 Y153.461 E0.57786
G1 X11.649 Y153.588 E0.05518
G1 X11.005 Y153.637 E0.06042
G1 X9.543 Y153.639 E0.13676
G1 X8.955 Y153.6 E0.05512
G1 X8.474 Y153.507 E0.04583
G1 X8.224 Y153.444 E0.02412
G1 X7.663 Y153.262 E0.05517
G1 X7.133 Y153.005 E0.0551
G1 X6.641 Y152.679 E0.05521
G1 X6.199 Y152.29 E0.05508
G1 X5.968 Y152.038 E0.03198
G1 X5.763 Y151.796 E0.02967
G1 X5.413 Y151.321 E0.05519
G1 X5.131 Y150.803 E0.05517
G1 X4.921 Y150.252 E0.05516
G1 X4.788 Y149.678 E0.05512
G1 X4.736 Y149.169 E0.04786
G1 X4.246 Y137.647 E1.07879
G1 X4.261 Y137.057 E0.05521
G1 X4.355 Y136.475 E0.05515
G1 X4.528 Y135.912 E0.0551
G1 X4.775 Y135.376 E0.05521
G1 X5.092 Y134.879 E0.05514
G1 X5.473 Y134.43 E0.05508
G1 X5.912 Y134.036 E0.05518
G1 X6.4 Y133.705 E0.05516
G1 X6.928 Y133.443 E0.05514
G1 X7.251 Y133.324 E0.0322
G1 X9.226 Y132.684 E0.19421
G1 X14.364 Y130.799 E0.51195
G1 X19.318 Y128.654 E0.50499
G1 X24.155 Y126.23 E0.50611
G1 X28.847 Y123.534 E0.5062
G1 X33.373 Y120.582 E0.50548
G1 X37.747 Y117.36 E0.50819
G1 X41.908 Y113.92 E0.50503
G1 X43.891 Y112.132 E0.24977
G1 X47.779 Y108.316 E0.50961
G1 X51.413 Y104.322 E0.50512
G1 X54.824 Y100.119 E0.50635
G1 X58.014 Y95.698 E0.50998
G1 X59.477 Y93.48 E0.24855
G1 X60.889 Y91.197 E0.25111
G1 X63.556 Y86.449 E0.50942
G1 X65.928 Y81.606 E0.50445
G1 X68.032 Y76.612 E0.50693
G1 X69.843 Y71.527 E0.50494
G1 X71.824 Y64.562 E0.67738
G1 X72.023 Y64.007 E0.05515
G1 X72.296 Y63.485 E0.0551
G1 X72.636 Y63.003 E0.05518
G0 F5400 X73.446 Y63.441
G1 F900 X73.827 Y63.079 E0.04916
G1 X74.257 Y62.779 E0.04905
G1 X74.729 Y62.548 E0.04916
G1 X75.23 Y62.391 E0.04911
G1 X76.008 Y62.302 E0.07325
G1 X85.998 Y62.301 E0.93451
G1 X86.558 Y62.347 E0.05256
G1 X93.883 Y63.552 E0.69442
G1 X99.323 Y64.085 E0.51132
G1 X104.76 Y64.31 E0.50903
G1 X110.238 Y64.225 E0.5125
G1 X115.667 Y63.834 E0.50917
G1 X121.112 Y63.13 E0.51359
G1 X125.398 Y62.356 E0.40742
G1 X126.011 Y62.301 E0.05757
G1 X135.992 Y62.301 E0.93366
G1 X136.515 Y62.341 E0.04907
G1 X137.027 Y62.46 E0.04917
G1 X137.514 Y62.655 E0.04907
G1 X137.966 Y62.922 E0.04911
G1 X138.373 Y63.254 E0.04913
G1 X138.724 Y63.644 E0.04908
G1 X139.012 Y64.083 E0.04911
G1 X139.311 Y64.808 E0.07336
G1 X141.257 Y71.656 E0.66595
G1 X143.073 Y76.782 E0.50871
G1 X145.192 Y81.835 E0.51256
G1 X147.575 Y86.726 E0.50894
G1 X150.244 Y91.499 E0.51155
G1 X151.67 Y93.811 E0.2541
G1 X154.734 Y98.339 E0.51143
G1 X158.059 Y102.7 E0.51299
G1 X161.596 Y106.831 E0.50872
G1 X165.382 Y110.777 E0.51155
G1 X169.401 Y114.518 E0.51362
G1 X171.462 Y116.28 E0.25365
G1 X173.56 Y117.972 E0.25213
G1 X177.973 Y121.233 E0.51329
G1 X182.541 Y124.226 E0.51086
G1 X187.267 Y126.953 E0.51041
G1 X192.139 Y129.408 E0.51034
G1 X197.177 Y131.599 E0.51391
G1 X199.724 Y132.581 E0.25535
G1 X204.472 Y134.197 E0.46917
G1 X204.955 Y134.403 E0.04912
G1 X205.401 Y134.681 E0.04916
G1 X205.799 Y135.022 E0.04903
G1 X206.141 Y135.42 E0.04909
G1 X206.419 Y135.866 E0.04916
G1 X206.626 Y136.348 E0.04907
G1 X206.757 Y136.857 E0.04917
G1 X206.809 Y137.582 E0.06799
G1 X206.442 Y148.235 E0.99712
G1 X206.427 Y148.459 E0.021
G1 X206.335 Y149.38 E0.08658
G1 X206.243 Y149.897 E0.04912
G1 X206.074 Y150.394 E0.04911
G1 X205.831 Y150.859 E0.04908
G1 X205.521 Y151.283 E0.04913
G1 X205.139 Y151.664 E0.05047
G1 X204.89 Y151.876 E0.03059
G1 X204.465 Y152.185 E0.04915
G1 X203.999 Y152.426 E0.04908
G1 X203.501 Y152.593 E0.04913
G1 X202.729 Y152.698 E0.07288
G1 X201.094 Y152.734 E0.15298
G1 X200.57 Y152.706 E0.04909
G1 X199.993 Y152.579 E0.05527
G1 X198.035 Y151.969 E0.19184
G1 X192.712 Y150.508 E0.51635
G1 X187.322 Y149.35 E0.51571
G1 X184.713 Y148.907 E0.24755
G1 X179.282 Y148.216 E0.51213
G1 X173.795 Y147.832 E0.51453
G1 X169.775 Y147.748 E0.37613
G1 X39.456 Y147.788 E12.19058
G1 X34.02 Y148.096 E0.50932
G1 X28.579 Y148.714 E0.51225
G1 X23.193 Y149.637 E0.51117
G1 X20.552 Y150.206 E0.25272
G1 X17.902 Y150.855 E0.25522
G1 X11.971 Y152.597 E0.57825
G1 X11.458 Y152.706 E0.04906
G1 X11.004 Y152.737 E0.04257
G1 X9.542 Y152.739 E0.13676
G1 X9.018 Y152.7 E0.04915
G1 X8.694 Y152.634 E0.03093
G1 X8.444 Y152.571 E0.02412
G1 X7.946 Y152.405 E0.0491
G1 X7.479 Y152.165 E0.04912
G1 X7.054 Y151.856 E0.04915
G1 X6.655 Y151.456 E0.05285
G1 X6.45 Y151.214 E0.02967
G1 X6.142 Y150.789 E0.0491
G1 X5.902 Y150.322 E0.04912
G1 X5.736 Y149.824 E0.0491
G1 X5.635 Y149.131 E0.06551
G1 X5.145 Y137.609 E1.07879
G1 X5.163 Y137.084 E0.04914
G1 X5.26 Y136.568 E0.04911
G1 X5.434 Y136.073 E0.04908
G1 X5.681 Y135.61 E0.04909
G1 X5.996 Y135.19 E0.04911
G1 X6.371 Y134.822 E0.04915
G1 X6.797 Y134.516 E0.04906
G1 X7.265 Y134.277 E0.04916
G1 X7.529 Y134.18 E0.02631
G1 X9.522 Y133.534 E0.19598
G1 X14.701 Y131.634 E0.51604
G1 X19.699 Y129.47 E0.50948
G1 X24.584 Y127.022 E0.51113
G1 X29.308 Y124.307 E0.50969
G1 X33.896 Y121.315 E0.51238
G1 X38.293 Y118.076 E0.51086
G1 X42.511 Y114.589 E0.51194
G1 X44.5 Y112.796 E0.2505
G1 X48.422 Y108.947 E0.51404
G1 X52.1 Y104.904 E0.51128
G1 X55.543 Y100.662 E0.51107
G1 X58.742 Y96.226 E0.51161
G1 X60.25 Y93.941 E0.2561
G1 X61.66 Y91.662 E0.25069
G1 X64.352 Y86.869 E0.51424
G1 X66.755 Y81.964 E0.51094
G1 X68.868 Y76.948 E0.50915
G1 X70.702 Y71.8 E0.51121
G1 X72.69 Y64.808 E0.67998
G1 X72.871 Y64.316 E0.04904
G1 X73.125 Y63.856 E0.04915
G1 X73.446 Y63.441 E0.04908
G1 F3600 E-8
G0 F5400 X76.412 Y66.154
;TYPE:WALL-OUTER
G1 F2700 E8
G1 F420 X85.588 Y66.153 E0.78683
G1 X85.588 Y66.969 E0.06997
G1 X76.412 Y66.969 E0.78683
G1 X76.412 Y66.154 E0.06989
G0 F5400 X77.412 Y66.154
G1 F3600 E-8
G0 F5400 X78.59 Y71.505
;TYPE:WALL-INNER
G1 F2700 E8
G1 F420 X84.176 Y71.505 E0.52254
G1 X95.384 Y135.067 E6.03758
G1 X96.327 Y137.255 E0.22287
G1 X98.353 Y138.956 E0.24746
G1 X100.673 Y139.505 E0.22302
G1 X111.327 Y139.505 E0.99662
G1 X113.647 Y138.956 E0.22302
G1 X115.673 Y137.255 E0.24746
G1 X116.616 Y135.067 E0.22287
G1 X127.824 Y71.505 E6.03758
G1 X133.41 Y71.505 E0.52254
G1 X122.552 Y133.08 E5.84885
G1 X122.649 Y135.314 E0.20917
G1 X123.795 Y137.513 E0.23196
G1 X125.761 Y139.02 E0.23172
G1 X127.942 Y139.505 E0.209
G1 X201.142 Y139.505 E6.84743
G1 X201.045 Y142.124 E0.24516
G1 X10.937 Y142.124 E17.78349
G1 X10.83 Y139.505 E0.2452
G1 X84.058 Y139.505 E6.85005
G1 X86.239 Y139.02 E0.209
G1 X88.205 Y137.513 E0.23172
G1 X89.351 Y135.314 E0.23196
G1 X89.448 Y133.08 E0.20917
G1 X78.59 Y71.505 E5.84885
G1 F3600 E-8
G0 F5400 X77.518 Y70.605
G1 F2700 E8
G1 F420 X84.931 Y70.605 E0.69344
G1 X96.252 Y134.807 E6.09838
G1 X97.069 Y136.703 E0.19313
G1 X98.768 Y138.129 E0.20749
G1 X100.778 Y138.605 E0.19322
G1 X111.222 Y138.605 E0.97697
G1 X113.232 Y138.129 E0.19322
G1 X114.931 Y136.703 E0.20749
G1 X115.748 Y134.807 E0.19313
G1 X127.069 Y70.605 E6.09838
G1 X134.482 Y70.605 E0.69344
G1 X123.455 Y133.139 E5.93994
G1 X123.539 Y135.075 E0.18127
G1 X124.501 Y136.92 E0.19464
G1 X126.151 Y138.185 E0.19449
G1 X128.041 Y138.605 E0.18111
G1 X202.067 Y138.605 E6.9247
G1 X202.038 Y139.677 E0.10032
G1 X201.911 Y143.024 E0.31332
G1 X10.073 Y143.024 E17.94532
G1 X9.893 Y138.605 E0.41371
G1 X83.959 Y138.605 E6.92844
G1 X85.849 Y138.185 E0.18111
G1 X87.499 Y136.92 E0.19449
G1 X88.461 Y135.075 E0.19464
G1 X88.545 Y133.139 E0.18127
G1 X77.518 Y70.605 E5.93994
G1 F3600 E-8
G0 F5400 X76.491 Y69.743
;TYPE:WALL-OUTER
G1 F2700 E8
G1 F420 X85.654 Y69.743 E0.78572
G1 X97.083 Y134.558 E5.64355
G1 X97.78 Y136.174 E0.15091
G1 X99.166 Y137.337 E0.15515
G1 X100.879 Y137.743 E0.15096
G1 X111.121 Y137.743 E0.87824
G1 X112.834 Y137.337 E0.15096
G1 X114.22 Y136.174 E0.15515
G1 X114.917 Y134.558 E0.15091
G1 X126.346 Y69.743 E5.64355
G1 X135.509 Y69.743 E0.78572
G1 X124.32 Y133.196 E5.52496
G1 X124.392 Y134.846 E0.14162
G1 X125.177 Y136.352 E0.14563
G1 X126.524 Y137.385 E0.14556
G1 X128.136 Y137.743 E0.14159
G1 X202.48 Y137.743 E6.37491
G1 X202.952 Y137.789 E0.04067
G1 X202.899 Y139.701 E0.16401
G1 X202.557 Y148.768 E0.77804
G1 X202.534 Y148.852 E0.00747
G1 X202.521 Y148.865 E0.00158
G1 X202.446 Y148.885 E0.00666
G1 X201.412 Y148.886 E0.08866
G1 X201.412 Y143.886 E0.42874
G1 X10.588 Y143.886 E16.36293
G1 X10.588 Y148.885 E0.42866
G1 X9.556 Y148.886 E0.08849
G1 X9.479 Y148.865 E0.00684
G1 X9.466 Y148.852 E0.00158
G1 X9.444 Y148.771 E0.0072
G1 X8.998 Y137.812 E0.9405
G1 X9.524 Y137.743 E0.04549
G1 X83.864 Y137.743 E6.37456
G1 X85.476 Y137.385 E0.14159
G1 X86.823 Y136.352 E0.14556
G1 X87.608 Y134.846 E0.14563
G1 X87.68 Y133.196 E0.14162
G1 X76.491 Y69.743 E5.52496
G0 F5400 X77.491 Y69.743
G1 F3600 E-8
G0 F5400 X92.954 Y138.524
;TYPE:SKIN
G1 F2700 E8
G1 F420 X91.737 Y138.524 E0.11384
G1 X92.403 Y137.245 E0.13489
G1 X92.954 Y138.524 E0.13027
G1 F3600 E-8
G0 F5400 X94.101 Y138.911
G1 F2700 E8
G1 F420 X94.712 Y139.424 E0.07463
G1 X90.15 Y139.424 E0.42675
G1 X90.323 Y139.291 E0.02041
G1 X92.021 Y136.03 E0.34392
G1 X92.158 Y132.902 E0.29289
G1 X81.806 Y74.205 E5.5755
G1 X81.912 Y74.205 E0.00992
G1 X92.78 Y135.847 E5.85518
G1 X94.101 Y138.911 E0.31212
G0 F5400 X94.843 Y138.359
G1 F420 X97.184 Y140.324 E0.28591
G1 X87.497 Y140.324 E0.90616
G1 X89.617 Y138.698 E0.24993
G1 X91.131 Y135.791 E0.3066
G1 X91.255 Y132.961 E0.26498
G1 X80.734 Y73.305 E5.66659
G1 X82.667 Y73.305 E0.18082
G1 X93.648 Y135.587 E5.91598
G1 X94.843 Y138.359 E0.28237
G0 F5400 X95.585 Y137.807
G1 F420 X97.937 Y139.782 E0.2873
G1 X98.337 Y139.877 E0.03846
G1 X100.568 Y140.405 E0.21446
G1 X111.433 Y140.405 E1.01636
G1 X114.063 Y139.782 E0.25283
G1 X116.415 Y137.807 E0.2873
G1 X117.484 Y135.327 E0.25262
G1 X128.578 Y72.405 E5.97677
G1 X132.338 Y72.405 E0.35173
G1 X121.648 Y133.02 E5.75768
G1 X121.759 Y135.552 E0.23708
G1 X123.089 Y138.105 E0.26928
G1 X125.375 Y139.859 E0.26954
G1 X125.473 Y139.878 E0.00934
G1 X127.844 Y140.405 E0.22721
G1 X200.208 Y140.405 E6.76923
G1 X200.177 Y141.224 E0.07667
G1 X11.801 Y141.224 E17.62147
G1 X11.768 Y140.405 E0.07667
G1 X84.156 Y140.405 E6.77147
G1 X86.629 Y139.856 E0.23697
G1 X88.911 Y138.105 E0.26907
G1 X90.241 Y135.552 E0.26928
G1 X90.352 Y133.02 E0.23708
G1 X79.662 Y72.405 E5.75768
G1 X83.422 Y72.405 E0.35173
G1 X94.516 Y135.327 E5.97677
G1 X95.585 Y137.807 E0.25262
G1 F3600 E-8
G0 F5400 X114.817 Y140.324
G1 F2700 E8
G1 F420 X117.157 Y138.359 E0.28584
G1 X118.352 Y135.587 E0.28237
G1 X129.333 Y73.305 E5.91598
G1 X131.266 Y73.305 E0.18082
G1 X120.745 Y132.961 E5.66659
G1 X120.869 Y135.791 E0.26498
G1 X122.383 Y138.698 E0.3066
G1 X124.502 Y140.324 E0.24985
G1 X114.817 Y140.324 E0.90597
G1 F3600 E-8
G0 F5400 X117.288 Y139.424
G1 F2700 E8
G1 F420 X117.899 Y138.911 E0.07463
G1 X119.22 Y135.847 E0.31212
G1 X130.088 Y74.205 E5.85518
G1 X130.194 Y74.205 E0.00992
G1 X119.842 Y132.902 E5.5755
G1 X119.979 Y136.03 E0.29289
G1 X121.677 Y139.291 E0.34392
G1 X121.85 Y139.424 E0.02041
G1 X117.288 Y139.424 E0.42675
G1 F3600 E-8
G0 F5400 X119.046 Y138.524
G1 F2700 E8
G1 F420 X119.597 Y137.245 E0.13027
G1 X120.263 Y138.524 E0.13489
G1 X119.046 Y138.524 E0.11384
G1 F3600 E-8
G0 F5400 X126.412 Y66.969
;TYPE:WALL-OUTER
G1 F2700 E8
G1 F420 X126.412 Y66.154 E0.06989
G1 X135.588 Y66.153 E0.78683
G1 X135.588 Y66.969 E0.06997
G1 X126.412 Y66.969 E0.78683
G0 F5400 X126.412 Y66.154
G0 X126.597 Y66.154
G1 F3600 E-8
G0 F5400 X76.85 Y66.341
;TIME_ELAPSED:548.726900
;LAYER:1
M140 S85
G0 F9000 X76.85 Y66.341 Z0.45
;TYPE:WALL-INNER
G1 F2700 E8
G1 F2400 X85.15 Y66.34 E0.41409
G1 X85.15 Y66.531 E0.00953
G1 X76.85 Y66.531 E0.41409
G1 X76.85 Y66.341 E0.00948
G0 F9000 X76.275 Y65.766
;TYPE:WALL-OUTER
G1 F2400 X85.725 Y65.765 E0.43217
G1 X85.725 Y67.106 E0.06133
G1 X76.275 Y67.106 E0.43217
G1 X76.275 Y65.766 E0.06128
G0 F9000 X77.275 Y65.766
G1 F3600 E-8
G0 F9000 X77.728 Y70.781
;TYPE:WALL-INNER
G1 F2700 E8
G1 F2400 X84.783 Y70.781 E0.35198
G1 X96.081 Y134.857 E3.24608
G1 X96.924 Y136.811 E0.10617
G1 X98.687 Y138.291 E0.11484
G1 X100.758 Y138.781 E0.10618
G1 X111.242 Y138.781 E0.52305
G1 X113.313 Y138.291 E0.10618
G1 X115.076 Y136.811 E0.11484
G1 X115.919 Y134.857 E0.10617
G1 X127.217 Y70.781 E3.24608
G1 X134.272 Y70.781 E0.35198
G1 X123.279 Y133.127 E3.15844
G1 X123.365 Y135.121 E0.09957
G1 X124.362 Y137.036 E0.10771
G1 X126.074 Y138.349 E0.10764
G1 X128.022 Y138.781 E0.09955
G1 X202.427 Y138.781 E3.71208
G1 X202.525 Y138.791 E0.00491
G1 X202.559 Y142.202 E0.17018
G1 X202.45 Y145.738 E0.1765
G1 X202.45 Y143.688 E0.10227
G1 X9.55 Y143.688 E9.62382
G1 X9.55 Y146.502 E0.14039
G1 X9.486 Y144.938 E0.07809
G1 X9.487 Y138.796 E0.30643
G1 X9.598 Y138.781 E0.00559
G1 X83.978 Y138.781 E3.71083
G1 X85.926 Y138.349 E0.09955
G1 X87.638 Y137.036 E0.10764
G1 X88.635 Y135.121 E0.10771
G1 X88.721 Y133.127 E0.09957
G1 X77.728 Y70.781 E3.15844
G0 F9000 X77.013 Y70.181
G1 F2400 X85.287 Y70.181 E0.41279
G1 X96.66 Y134.684 E3.26771
G1 X97.419 Y136.443 E0.09558
G1 X98.964 Y137.74 E0.10064
G1 X100.828 Y138.181 E0.09556
G1 X111.172 Y138.181 E0.51606
G1 X113.036 Y137.74 E0.09556
G1 X114.581 Y136.443 E0.10064
G1 X115.34 Y134.684 E0.09558
G1 X126.713 Y70.181 E3.26771
G1 X134.987 Y70.181 E0.41279
G1 X123.881 Y133.167 E3.19086
G1 X123.959 Y134.962 E0.08964
G1 X124.833 Y136.641 E0.09444
G1 X126.334 Y137.792 E0.09437
G1 X128.088 Y138.181 E0.08963
G1 X202.456 Y138.181 E3.71023
G1 X203.018 Y138.237 E0.02818
G1 X203.12 Y138.267 E0.0053
G1 X203.159 Y142.22 E0.19723
G1 X202.959 Y148.708 E0.32384
