;FLAVOR:RepRap
;TIME:1910
;Filament used: 0.150957m, 0.326083m, 0.418135m, 0.421968m, 0.929216m
;Layer height: 0.2
;Generated with Cura_SteamEngine 3.6.0
;T0
M190 S80
M104 S240
;M104 ;T1 S240
;M104 ;T2 S240
;M104 ;T3 S240
;M104 ;T4 S240
M109 S240
;M109 ;T1 S240
;M109 ;T2 S240
;M109 ;T3 S240
;M109 ;T4 S240
M82 ;absolute extrusion mode
M98 Pprint_start.g
M83 ;relative extrusion mode
G1 F4800 E-6
;LAYER_COUNT:60
;LAYER:0
M107
G0 F3600 X105.657 Y98.214 Z0.3
;TYPE:SKIRT
G1 F1800 E6
G1 F540 X106.067 Y97.88 E0.06596
G1 X106.352 Y97.701 E0.04198
G1 X106.811 Y97.443 E0.06567
G1 X107.29 Y97.219 E0.06595
G1 X107.798 Y97.071 E0.06599
G1 X108.077 Y97.023 E0.03531
G1 X108.811 Y96.928 E0.09231
G1 X109.376 Y96.901 E0.07055
G1 X113.666 Y97.043 E0.53537
G1 X120.629 Y96.9 E0.86865
G1 X121.274 Y96.946 E0.08065
G1 X122.208 Y97.101 E0.11809
G1 X122.722 Y97.227 E0.06601
G1 X123.21 Y97.429 E0.06587
G1 X123.669 Y97.706 E0.06687
G1 X124.047 Y97.976 E0.05794
G1 X124.453 Y98.315 E0.06597
G1 X124.805 Y98.713 E0.06627
G1 X127.548 Y102.34 E0.56718
G1 X132.377 Y108.199 E0.94699
G1 X132.8 Y108.846 E0.09641
G1 X132.986 Y109.214 E0.05143
G1 X133.188 Y109.703 E0.06599
G1 X133.339 Y110.393 E0.0881
G1 X133.399 Y110.914 E0.06541
G1 X133.42 Y111.442 E0.06591
G1 X133.384 Y111.826 E0.0481
G1 X133.305 Y112.36 E0.06733
G1 X133.226 Y112.744 E0.0489
G1 X132.191 Y116.65 E0.50399
G1 X131.573 Y119.328 E0.34279
G1 X130.691 Y123.847 E0.57427
G1 X130.551 Y124.357 E0.06596
G1 X130.437 Y124.637 E0.03771
G1 X130.129 Y125.308 E0.09209
G1 X129.873 Y125.771 E0.06599
G1 X129.55 Y126.189 E0.06589
G1 X129.277 Y126.461 E0.04807
G1 X128.928 Y126.772 E0.0583
G1 X128.507 Y127.093 E0.06603
G1 X128.067 Y127.336 E0.06269
G1 X121.23 Y130.496 E0.93943
G1 X117.538 Y132.433 E0.52001
G1 X117.053 Y132.643 E0.06592
G1 X116.328 Y132.893 E0.09565
G1 X115.816 Y133.027 E0.06601
G1 X115.291 Y133.082 E0.06584
G1 X114.87 Y133.07 E0.05253
G1 X114.244 Y133.013 E0.0784
G1 X113.722 Y132.925 E0.06603
G1 X113.22 Y132.76 E0.06591
G1 X112.967 Y132.643 E0.03477
G1 X108.808 Y130.515 E0.58269
G1 X102.374 Y127.575 E0.88229
G1 X102.082 Y127.425 E0.04094
G1 X101.568 Y127.129 E0.07398
G1 X101.131 Y126.831 E0.06597
G1 X100.744 Y126.471 E0.06592
G1 X100.554 Y126.247 E0.03664
G1 X100.106 Y125.672 E0.09092
G1 X99.814 Y125.232 E0.06586
G1 X99.534 Y124.588 E0.08759
G1 X99.374 Y124.088 E0.06548
G1 X99.27 Y123.684 E0.05203
G1 X98.477 Y119.572 E0.52232
G1 X97.882 Y116.944 E0.33607
G1 X96.73 Y112.549 E0.56669
G1 X96.635 Y112.029 E0.06593
G1 X96.617 Y111.761 E0.0335
G1 X96.597 Y111.056 E0.08797
G1 X96.622 Y110.528 E0.06593
G1 X96.727 Y110.01 E0.06592
G1 X96.849 Y109.651 E0.04729
G1 X97.044 Y109.166 E0.0652
G1 X97.277 Y108.692 E0.06588
G1 X97.612 Y108.219 E0.07229
G1 X100.593 Y104.675 E0.57761
G1 X104.605 Y99.505 E0.81621
G0 F486 X105.302 Y98.606
G0 X105.657 Y98.214
M82 ;absolute extrusion mode
M83 ;Fuck you Cura, forcing relative extrusion
G1 E-6 F4800 ;Retracting to help with color switching
M83 ;relative extrusion mode
;T1
M82 ;absolute extrusion mode
M83 ;Fuck you Cura, forcing relative extrusion
M567 P0 E1:0:0:0 ;Setting mixing ratio
G1 E1.5 F1800 ;Priming, may be useless/terrible
M83 ;relative extrusion mode
G1 F4800 E-1.5
;MESH:Object 72
G0 F3600 X104.91 Y97.545 Z0.3
;TYPE:SKIRT
G1 F1800 E1.5
G1 F540 X105.365 Y97.154 E0.07483
G1 X105.862 Y96.829 E0.07407
G1 X106.321 Y96.571 E0.06567
G1 X106.862 Y96.313 E0.07476
G1 X107.433 Y96.129 E0.07482
G1 X107.948 Y96.031 E0.06539
G1 X108.682 Y95.936 E0.09231
G1 X109.409 Y95.901 E0.09078
G1 X113.679 Y96.042 E0.53287
G1 X120.609 Y95.9 E0.86453
G1 X121.438 Y95.96 E0.10367
G1 X122.372 Y96.115 E0.11809
G1 X122.955 Y96.252 E0.0747
G1 X123.516 Y96.466 E0.07489
G1 X124.251 Y96.892 E0.10596
G1 X124.629 Y97.162 E0.05794
G1 X125.092 Y97.542 E0.07471
G1 X125.602 Y98.11 E0.09521
G1 X128.332 Y101.72 E0.56451
G1 X133.148 Y107.563 E0.94442
G1 X133.498 Y108.05 E0.0748
G1 X133.692 Y108.395 E0.04937
G1 X133.878 Y108.763 E0.05143
G1 X134.112 Y109.315 E0.07478
G1 X134.271 Y109.893 E0.07477
G1 X134.332 Y110.278 E0.04862
G1 X134.392 Y110.799 E0.06541
G1 X134.421 Y111.398 E0.0748
G1 X134.374 Y111.973 E0.07196
G1 X134.295 Y112.507 E0.06733
G1 X134.193 Y113 E0.06279
G1 X133.165 Y116.882 E0.50087
G1 X132.551 Y119.537 E0.33989
G1 X131.673 Y124.039 E0.57209
G1 X131.519 Y124.618 E0.07473
G1 X131.346 Y125.054 E0.0585
G1 X131.038 Y125.725 E0.09209
G1 X130.752 Y126.252 E0.07479
G1 X130.398 Y126.737 E0.07489
G1 X129.942 Y127.208 E0.08177
G1 X129.593 Y127.519 E0.0583
G1 X129.12 Y127.887 E0.07475
G1 X128.487 Y128.244 E0.09064
G1 X121.676 Y131.392 E0.93585
G1 X118.003 Y133.319 E0.51734
G1 X117.379 Y133.588 E0.08475
G1 X116.654 Y133.838 E0.09565
G1 X116.075 Y133.995 E0.07482
G1 X115.481 Y134.074 E0.07474
G1 X114.779 Y134.065 E0.08756
G1 X114.153 Y134.008 E0.0784
G1 X113.561 Y133.914 E0.07476
G1 X112.986 Y133.742 E0.07486
G1 X112.511 Y133.533 E0.06473
G1 X108.375 Y131.416 E0.57951
G1 X101.959 Y128.485 E0.87979
G1 X101.583 Y128.292 E0.05271
G1 X101.069 Y127.996 E0.07398
G1 X100.571 Y127.662 E0.07479
G1 X100.121 Y127.266 E0.07476
G1 X99.765 Y126.862 E0.06716
G1 X99.317 Y126.287 E0.09092
G1 X98.981 Y125.79 E0.07483
G1 X98.714 Y125.253 E0.0748
G1 X98.581 Y124.892 E0.04798
G1 X98.421 Y124.392 E0.06548
G1 X98.288 Y123.873 E0.06682
G1 X97.496 Y119.768 E0.52144
G1 X96.911 Y117.183 E0.33057
G1 X95.763 Y112.803 E0.56475
G1 X95.65 Y112.214 E0.0748
G1 X95.618 Y111.79 E0.05303
G1 X95.598 Y111.085 E0.08797
G1 X95.621 Y110.485 E0.07489
G1 X95.723 Y109.895 E0.07468
G1 X95.921 Y109.278 E0.08082
G1 X96.116 Y108.793 E0.0652
G1 X96.376 Y108.253 E0.07475
G1 X96.847 Y107.576 E0.10286
G1 X99.805 Y104.058 E0.57328
G1 X103.858 Y98.835 E0.82457
G0 F486 X104.512 Y97.993
G0 X104.91 Y97.545
G1 F4800 E-1.5
G0 F3600 X112.174 Y110.121
G0 X110.839 Y111.917
G0 X110.925 Y111.967
;TYPE:WALL-OUTER
G1 F1800 E1.70779
G1 F540 X110.925 Y116.673 E0.58696
G1 X115 Y119.025 E0.58684
G1 X119.075 Y116.673 E0.58684
G1 X119.075 Y111.967 E0.58696
G1 X115 Y109.615 E0.58684
G1 X112.367 Y111.135 E0.3792
G0 F486 X110.925 Y111.967
G0 F3600 X110.925 Y112.142
G0 X110.825 Y112.142
G0 X110.878 Y111.985
G0 X115.436 Y108.855
G0 X115.487 Y108.769
G1 F1800 E0.20779
G1 F540 X119.563 Y111.123 E0.5724
G1 X120.05 Y111.405 E0.07019
G1 X120.05 Y111.967 E0.0701
G1 X120.05 Y116.673 E0.57228
G1 X120.05 Y117.235 E0.0701
G1 X119.563 Y117.516 E0.07013
G1 X115.487 Y119.87 E0.5721
G1 X115 Y120.152 E0.07019
G1 X114.513 Y119.871 E0.07013
G1 X110.437 Y117.517 E0.5724
G1 X109.95 Y117.235 E0.07019
G1 X109.95 Y116.673 E0.0701
G1 X109.95 Y111.967 E0.57228
G1 X109.95 Y111.405 E0.0701
G1 X110.437 Y111.124 E0.07013
G1 X114.512 Y108.77 E0.572
G1 X115 Y108.488 E0.0703
G1 X115.285 Y108.652 E0.04101
G0 F486 X115.487 Y108.769
G0 F3600 X115.638 Y108.856
M82 ;absolute extrusion mode
M83 ;Fuck you Cura, forcing relative extrusion
G1 E-1.5 F4800 ;Retracting to help with color switching
M83 ;relative extrusion mode
;T2
M82 ;absolute extrusion mode
M83 ;Fuck you Cura, forcing relative extrusion
M567 P0 E0:1:0:0 ;Setting mixing ratio
G1 E1.5 F1800 ;Priming, may be useless/terrible
M83 ;relative extrusion mode
G1 F4800 E-1.5
;MESH:Object 74
G0 F3600 X113.667 Y94.042 Z0.3
;TYPE:SKIRT
G1 F1800 E1.5
G1 F540 X120.568 Y93.9 E0.86091
G1 X121.288 Y93.926 E0.08986
G1 X121.765 Y93.987 E0.05998
G1 X122.699 Y94.142 E0.11809
G1 X123.403 Y94.299 E0.08996
G1 X124.084 Y94.533 E0.08981
G1 X124.736 Y94.841 E0.08994
G1 X125.413 Y95.265 E0.09963
G1 X125.791 Y95.535 E0.05794
G1 X126.353 Y95.986 E0.08988
G1 X126.863 Y96.496 E0.08996
G1 X127.198 Y96.904 E0.06584
G1 X129.901 Y100.478 E0.5589
G1 X134.692 Y106.291 E0.93955
G1 X135.119 Y106.872 E0.08993
G1 X135.477 Y107.493 E0.0894
G1 X135.663 Y107.861 E0.05143
G1 X135.952 Y108.521 E0.08986
G1 X136.166 Y109.21 E0.08999
G1 X136.319 Y110.049 E0.10637
G1 X136.379 Y110.57 E0.06541
G1 X136.422 Y111.29 E0.08996
G1 X136.352 Y112.265 E0.12192
G1 X136.273 Y112.799 E0.06733
G1 X136.126 Y113.513 E0.09092
G1 X135.101 Y117.381 E0.49909
G1 X134.512 Y119.933 E0.32667
G1 X133.636 Y124.422 E0.57045
G1 X133.459 Y125.121 E0.08993
G1 X133.163 Y125.889 E0.10266
G1 X132.855 Y126.56 E0.09209
G1 X132.519 Y127.197 E0.08983
G1 X132.114 Y127.793 E0.08988
G1 X131.645 Y128.341 E0.08996
G1 X131.272 Y128.701 E0.06466
G1 X130.923 Y129.012 E0.0583
G1 X130.359 Y129.461 E0.08991
G1 X129.749 Y129.845 E0.0899
G1 X129.326 Y130.059 E0.05913
G1 X122.567 Y133.183 E0.92871
G1 X118.932 Y135.09 E0.51198
G1 X118.031 Y135.479 E0.1224
G1 X117.306 Y135.729 E0.09565
G1 X116.613 Y135.926 E0.08986
G1 X115.902 Y136.045 E0.08991
G1 X115.182 Y136.084 E0.08993
G1 X114.598 Y136.057 E0.07292
G1 X113.972 Y136 E0.0784
G1 X113.258 Y135.895 E0.09001
G1 X112.561 Y135.712 E0.08988
G1 X111.6 Y135.313 E0.12978
G1 X107.508 Y133.219 E0.57332
G1 X101.128 Y130.304 E0.87487
G1 X100.585 Y130.025 E0.07614
G1 X100.071 Y129.729 E0.07398
G1 X99.467 Y129.335 E0.08995
G1 X98.911 Y128.877 E0.08985
G1 X98.188 Y128.091 E0.1332
G1 X97.74 Y127.516 E0.09092
G1 X97.329 Y126.924 E0.08989
G1 X96.986 Y126.289 E0.09002
G1 X96.676 Y125.502 E0.1055
G1 X96.516 Y125.002 E0.06548
G1 X96.325 Y124.252 E0.09653
G1 X95.545 Y120.208 E0.51369
G1 X94.968 Y117.66 E0.32585
G1 X93.828 Y113.31 E0.56088
G1 X93.685 Y112.604 E0.08984
G1 X93.619 Y111.846 E0.0949
G1 X93.599 Y111.141 E0.08797
G1 X93.618 Y110.421 E0.08983
G1 X93.717 Y109.707 E0.08991
G1 X93.895 Y109.008 E0.08997
G1 X94.065 Y108.532 E0.06304
G1 X94.26 Y108.047 E0.0652
G1 X94.566 Y107.394 E0.08994
G1 X94.942 Y106.779 E0.08991
G1 X95.316 Y106.288 E0.07698
G1 X98.263 Y102.784 E0.57106
G1 X102.932 Y96.767 E0.94991
G1 X103.405 Y96.223 E0.08991
G1 X103.935 Y95.735 E0.08986
G1 X104.516 Y95.308 E0.08993
G1 X104.882 Y95.086 E0.05339
G1 X105.341 Y94.828 E0.06567
G1 X105.988 Y94.51 E0.08992
G1 X106.666 Y94.266 E0.08987
G1 X107.692 Y94.048 E0.13083
G1 X108.426 Y93.953 E0.09231
G1 X109.475 Y93.903 E0.13099
G1 X112.002 Y93.987 E0.31536
G0 F486 X113.667 Y94.042
G1 F4800 E-1.5
G0 F3600 X113.721 Y107.231
G0 X109.066 Y110.894
G0 X109.066 Y117.746
G0 X109.304 Y117.959
G0 X109.356 Y117.874
;TYPE:WALL-OUTER
G1 F1800 E1.70779
G1 F540 X109.633 Y118.034 E0.0399
G1 X109.678 Y118.06 E0.00648
G1 X114.113 Y120.621 E0.63876
G1 X114.19 Y120.665 E0.01106
G1 X114.601 Y120.902 E0.05917
G1 X114.923 Y121.088 E0.04638
G1 X115 Y121.132 E0.01106
G1 X115.22 Y121.005 E0.03168
G1 X115.591 Y120.791 E0.05342
G1 X115.892 Y120.617 E0.04336
G1 X120.312 Y118.065 E0.63658
G1 X120.498 Y117.958 E0.02676
G1 X120.79 Y117.79 E0.04202
G1 X120.9 Y117.726 E0.01587
G1 X120.9 Y117.542 E0.02295
G1 X120.9 Y116.633 E0.11338
G1 X120.9 Y115.946 E0.08569
G1 X120.9 Y111.765 E0.52148
G1 X120.9 Y111.679 E0.01073
G1 X120.9 Y111.23 E0.056
G1 X120.9 Y110.914 E0.03941
G1 X120.8 Y110.856 E0.01442
G1 X120.195 Y110.507 E0.08711
G1 X119.533 Y110.125 E0.09533
G1 X116.064 Y108.122 E0.49962
G1 X115.423 Y107.752 E0.09231
G1 X115 Y107.508 E0.06091
G1 X114.17 Y107.987 E0.11952
G1 X113.968 Y108.103 E0.02905
G1 X110.412 Y110.156 E0.51213
G1 X110.39 Y110.169 E0.00319
G1 X109.812 Y110.503 E0.08326
G1 X109.1 Y110.914 E0.10254
G1 X109.1 Y111.441 E0.06573
G1 X109.1 Y111.784 E0.04278
G1 X109.1 Y115.938 E0.51811
G1 X109.1 Y116.355 E0.05201
G0 F486 X109.1 Y117.146
G0 X109.1 Y117.726
G0 X109.356 Y117.874
G0 F3600 X109.507 Y117.961
G0 X109.457 Y118.047
G0 X115 Y121.172
G0 X116.506 Y121.343
G0 X116.541 Y121.436
G1 F1800 E0.20779
G1 F540 X116.386 Y121.487 E0.02035
G1 X116.056 Y121.594 E0.04169
G1 X115.619 Y121.693 E0.0507
G1 X115.261 Y121.736 E0.03467
G1 X115.018 Y121.743 E0.02044
G1 X114.919 Y121.746 E0.00608
G1 X114.559 Y121.719 E0.03336
G1 X114.169 Y121.65 E0.03976
G1 X113.697 Y121.52 E0.05656
G1 X113.614 Y121.489 E0.01097
G1 X113.059 Y121.275 E0.07419
G1 X111.922 Y120.706 E0.15858
G1 X111.251 Y120.413 E0.09132
G1 X110.397 Y119.961 E0.12051
G1 X109.969 Y119.679 E0.06393
G1 X109.627 Y119.405 E0.05466
G1 X109.358 Y119.142 E0.04692
G1 X109.177 Y118.925 E0.03524
G1 X109.143 Y118.885 E0.00649
G1 X108.942 Y118.592 E0.04039
G1 X108.751 Y118.244 E0.03809
G1 X108.619 Y117.93 E0.028
G1 X108.557 Y117.784 E0.00518
G1 X108.353 Y117.146 E0.05631
G1 X108.103 Y115.965 E0.13161
G1 X108.007 Y115.511 E0.05788
G1 X107.986 Y115.511 E0.00262
G1 X107.901 Y115.19 E0.04142
G1 X107.72 Y114.244 E0.12013
G1 X107.672 Y113.721 E0.06551
G1 X107.674 Y113.287 E0.05413
G1 X107.711 Y112.919 E0.04613
G1 X107.778 Y112.588 E0.04212
G1 X107.882 Y112.246 E0.04458
G1 X108.035 Y111.883 E0.04913
G1 X108.111 Y111.743 E0.01987
G1 X108.274 Y111.441 E0.03919
G1 X108.648 Y110.884 E0.05785
G1 X108.814 Y110.681 E0.01135
G1 X109.461 Y109.894 E0.07451
G1 X109.894 Y109.311 E0.07752
G1 X109.91 Y109.292 E0.00308
G1 X110.52 Y108.58 E0.11694
G1 X110.902 Y108.216 E0.06581
G1 X111.236 Y107.951 E0.05318
G1 X111.547 Y107.751 E0.04612
G1 X111.856 Y107.594 E0.04323
G1 X112.19 Y107.461 E0.04484
G1 X112.564 Y107.355 E0.04848
G1 X113.051 Y107.268 E0.0617
G1 X113.488 Y107.231 E0.0547
G1 X113.721 Y107.212 E0.02766
G1 X115.003 Y107.23 E0.10418
G1 X115.738 Y107.206 E0.05159
G1 X116.479 Y107.231 E0.07589
G1 X116.693 Y107.239 E0.02671
G1 X117.216 Y107.309 E0.06581
G1 X117.632 Y107.406 E0.05328
G1 X117.991 Y107.527 E0.04725
G1 X118.295 Y107.664 E0.04159
G1 X118.605 Y107.843 E0.04465
G1 X118.927 Y108.074 E0.04943
G1 X119.298 Y108.399 E0.06152
G1 X119.765 Y108.895 E0.08497
G1 X120.076 Y109.296 E0.06329
G1 X120.544 Y109.901 E0.08131
G1 X121.026 Y110.463 E0.06047
G1 X121.197 Y110.694 E0.02128
G1 X121.593 Y111.23 E0.05564
G1 X121.861 Y111.679 E0.05509
G1 X121.898 Y111.756 E0.01045
G1 X122.044 Y112.063 E0.0424
G1 X122.174 Y112.419 E0.04727
G1 X122.258 Y112.754 E0.04308
G1 X122.312 Y113.105 E0.04429
G1 X122.331 Y113.486 E0.04758
G1 X122.309 Y113.994 E0.06342
G1 X122.215 Y114.654 E0.08315
G1 X121.9 Y115.946 E0.16587
G1 X121.77 Y116.633 E0.08161
G1 X121.528 Y117.542 E0.0886
G1 X121.39 Y117.91 E0.03398
G1 X121.342 Y118.037 E0.00858
G1 X121.155 Y118.423 E0.03996
G1 X120.955 Y118.749 E0.03993
G1 X120.825 Y118.92 E0.02565
G1 X120.757 Y119.01 E0.01407
G1 X120.507 Y119.279 E0.0458
G1 X120.219 Y119.535 E0.04806
G1 X119.815 Y119.829 E0.06232
G1 X119.229 Y120.172 E0.08469
G1 X118.071 Y120.71 E0.15926
G1 X118.046 Y120.723 E0.00351
G0 F486 X117.423 Y121.049
G0 X116.541 Y121.436
G0 F3600 X116.386 Y121.487
G0 X116.375 Y121.49
G0 X116.556 Y121.388
M82 ;absolute extrusion mode
M83 ;Fuck you Cura, forcing relative extrusion
G1 E-1.5 F4800 ;Retracting to help with color switching
M83 ;relative extrusion mode
;T3
M82 ;absolute extrusion mode
M83 ;Fuck you Cura, forcing relative extrusion
M567 P0 E0:0:1:0 ;Setting mixing ratio
G1 E1.5 F1800 ;Priming, may be useless/terrible
M83 ;relative extrusion mode
G1 F4800 E-1.5
;MESH:Object 73
G0 F3600 X123.476 Y135.034 Z0.3
;TYPE:SKIRT
G1 F1800 E1.5
G1 F540 X119.89 Y136.916 E0.56826
G1 X119.139 Y137.264 E0.11614
G1 X118.703 Y137.428 E0.06536
G1 X117.978 Y137.678 E0.10761
G1 X117.184 Y137.91 E0.11607
G1 X116.371 Y138.064 E0.11611
G1 X115.547 Y138.138 E0.11609
G1 X114.411 Y138.111 E0.15944
G1 X113.785 Y138.054 E0.0882
G1 X112.965 Y137.939 E0.11619
G1 X112.161 Y137.746 E0.11602
G1 X111.379 Y137.476 E0.11608
G1 X110.661 Y137.149 E0.1107
G1 X106.616 Y135.079 E0.63758
G1 X100.271 Y132.18 E0.97883
G1 X99.556 Y131.812 E0.11283
G1 X99.042 Y131.516 E0.08323
G1 X98.346 Y131.069 E0.11607
G1 X97.696 Y130.556 E0.11619
G1 X97.099 Y129.984 E0.11601
G1 X96.561 Y129.358 E0.11582
G1 X96.113 Y128.783 E0.10228
G1 X95.637 Y128.107 E0.11601
G1 X95.228 Y127.387 E0.11619
G1 X94.89 Y126.632 E0.11607
G1 X94.712 Y126.13 E0.07474
G1 X94.552 Y125.63 E0.07366
G1 X94.3 Y124.642 E0.14307
G1 X93.525 Y120.626 E0.57391
G1 X92.961 Y118.132 E0.35879
G1 X91.834 Y113.833 E0.6236
G1 X91.663 Y113.023 E0.11616
G1 X91.557 Y111.905 E0.15758
G1 X91.537 Y111.2 E0.09896
G1 X91.554 Y110.373 E0.11607
G1 X91.65 Y109.551 E0.11612
G1 X91.825 Y108.742 E0.11614
G1 X92.152 Y107.763 E0.14483
G1 X92.347 Y107.278 E0.07335
G1 X92.692 Y106.526 E0.11609
G1 X93.109 Y105.811 E0.11614
G1 X93.738 Y104.961 E0.14837
G1 X96.657 Y101.489 E0.63648
G1 X101.303 Y95.503 E1.06324
G1 X101.841 Y94.874 E0.11614
G1 X102.437 Y94.301 E0.11601
G1 X103.086 Y93.788 E0.11608
G1 X103.872 Y93.288 E0.13071
G1 X104.331 Y93.03 E0.07388
